!!!!SEGMENT: pl-cz--iii-743--001-010_zebrowski-marcin-jozef--magnificat-sicut-locutus.krn
!!!cenid: 17xx:2341
!!!COM: Żebrowski, Marcin Józef
!!!COM-rismID: pe30020322
!!!CDT: 1702-1770/06/29
!!!CNT: Polish
!!!OPR: Magnificat
!!!OTL: Sicut locutus
!!!OMV: 010
!!!PDT:
!!!AGN:
!!!SMS-siglum: PL-CZ
!!!SMS-shelfmark: III-743
!!!SMS-shelfwork: 001-010 M
!!!SMS-variant:
!!!SMS-altvar:
!!!NIFC-rismSourceID: 300033495
!!!NIFC-islandoraID: pl-cz:25228
!!!URL-pdf-islandora: https://repozytorium.nifc.pl/islandora/object/pl-cz%3A25228/datastream/PDF/view
!!!URL-scan: https://polish.musicsources.pl/pl/lokalizacje/galeria/rekopisy/1473 @EN{Scan on Polish Music Sources Website} @PL{Skany w portalu Dziedzictwo Muzyki Polskiej w otwartym dostępie}
!!!ONB-nifc: UWAGA: części Magnificatu: 1. Magnificat, 2. Et exultavit, 3. Quia respexit, 4. Quia fecit, 5. Et misericordia, 6. Fecit potentiam, 7. Deposuit potentes, 8. Esurientes implevit bonis, 9. Suscepit Israel, 10. Sicut locutus, 11. Gloria patri (razem z Sicut erat i Amen)
!!!AIN: 1 alto 1 bass 2 cor 1 organ 1 soprn 1 tenor 1 viola 2 violn
!!!key: G
**kern	**dynam	**fba	**kern	**kern	**kern	**kern	**kern	**text	**kern	**kern	**kern	**kern
*part10	*part10	*part10	*part9	*part8	*part7	*part6	*part5	*part5	*part4	*part3	*part2	*part1
*staff10	*	*	*staff9	*staff8	*staff7	*staff6	*staff5	*staff5	*staff4	*staff3	*staff2	*staff1
*I"Basso pro Organo.	*	*	*I"Viola	*I"Violino Secondo.	*I"Violino Primo	*I"Basso	*I"Tenore	*	*I"Alto	*I"Canto	*I"Cornuo Secondo.	*I"Cornuo Primo
*I'org	*	*	*I'vla	*I'vl II	*I'vl I	*I'B	*I'T	*	*I'A	*I'S	*I'cor in G	*I'cor in G
*Iorgan	*	*	*Iviola	*Ivioln	*Ivioln	*Ibass	*Itenor	*	*Ialto	*Isoprn	*Icor	*Icor
*ICklav	*	*	*ICstr	*ICstr	*ICstr	*ICvox	*ICvox	*	*ICvox	*ICvox	*ICbras	*ICbras
*clefF4	*	*	*clefC3	*clefG2	*clefG2	*clefF4	*clefC4	*	*clefG2	*clefG2	*clefG2	*clefG2
*	*	*	*	*	*	*	*	*	*	*	*ITrd3c5	*ITrd3c5
*k[f#c#]	*	*	*k[f#c#]	*k[f#c#]	*k[f#c#]	*k[f#c#]	*k[f#c#]	*	*k[f#c#]	*k[f#c#]	*k[f#c#]	*k[f#c#]
*G:	*	*	*G:	*G:	*G:	*G:	*G:	*	*G:	*G:	*G:	*G:
*M2/4	*	*	*M2/4	*M2/4	*M2/4	*M2/4	*M2/4	*	*M2/4	*M2/4	*M2/4	*M2/4
=1	=1	=1	=1	=1	=1	=1	=1	=1	=1	=1	=1	=1
!LO:TX:b:t=Sicut locutus. allegro tutti.	!	!	!LO:TX:a:b:t=Sicut Locut(us) Tacet	!LO:TX:a:t=Sicut Locutus est Tacet	!LO:TX:a:t=Sicut Locutus est Tacet	!LO:TX:a:t=Sicut Locutus est 2/4 Tacet	!LO:TX:a:t=All(egro) Solo.	!	!	!LO:TX:b:t=Sicut locutus tacet.	!LO:TX:a:t=Sicut locutus est tacet 2/4	!LO:TX:a:t=Sicut locutus est tacet 2/4
8r	.	.	2ryy	2ryy	2ryy	2ryy	2r	.	2ryy	2ryy	2ryy	2ryy
16B\LL	.	.	.	.	.	.	.	.	.	.	.	.
16A#X\JJ	.	.	.	.	.	.	.	.	.	.	.	.
8B\L	.	.	.	.	.	.	.	.	.	.	.	.
8B\J	.	.	.	.	.	.	.	.	.	.	.	.
=2	=2	=2	=2	=2	=2	=2	=2	=2	=2	=2	=2	=2
8G\L	.	6	2ryy	2ryy	2ryy	2ryy	2r	.	2ryy	2ryy	2ryy	2ryy
16B\L	.	.	.	.	.	.	.	.	.	.	.	.
16An\JJ	.	.	.	.	.	.	.	.	.	.	.	.
16G\LL	.	.	.	.	.	.	.	.	.	.	.	.
16F#\	.	.	.	.	.	.	.	.	.	.	.	.
16E\	.	.	.	.	.	.	.	.	.	.	.	.
16D\JJ	.	.	.	.	.	.	.	.	.	.	.	.
=3	=3	=3	=3	=3	=3	=3	=3	=3	=3	=3	=3	=3
8C#\L	.	6	2ryy	2ryy	2ryy	2ryy	2r	.	2ryy	2ryy	2ryy	2ryy
16A\L	.	.	.	.	.	.	.	.	.	.	.	.
16G#X\JJ	.	.	.	.	.	.	.	.	.	.	.	.
8A\L	.	.	.	.	.	.	.	.	.	.	.	.
8A\J	.	.	.	.	.	.	.	.	.	.	.	.
=4	=4	=4	=4	=4	=4	=4	=4	=4	=4	=4	=4	=4
8F#\L	.	6	2ryy	2ryy	2ryy	2ryy	2r	.	2ryy	2ryy	2ryy	2ryy
16A\L	.	.	.	.	.	.	.	.	.	.	.	.
16Gn\JJ	.	.	.	.	.	.	.	.	.	.	.	.
16F#\LL	.	.	.	.	.	.	.	.	.	.	.	.
16E\	.	.	.	.	.	.	.	.	.	.	.	.
16D\	.	.	.	.	.	.	.	.	.	.	.	.
16C#\JJ	.	.	.	.	.	.	.	.	.	.	.	.
=5	=5	=5	=5	=5	=5	=5	=5	=5	=5	=5	=5	=5
!LO:TX:t=P:problem=mixed beam	!	!	!	!	!	!	!	!	!	!	!	!
8BB/L	.	6	2ryy	2ryy	2ryy	2ryy	2r	.	2ryy	2ryy	2ryy	2ryy
16G\L	.	.	.	.	.	.	.	.	.	.	.	.
16F#\JJ	.	.	.	.	.	.	.	.	.	.	.	.
8G\L	.	.	.	.	.	.	.	.	.	.	.	.
8G\J	.	.	.	.	.	.	.	.	.	.	.	.
=6	=6	=6	=6	=6	=6	=6	=6	=6	=6	=6	=6	=6
8E\L	.	6	2ryy	2ryy	2ryy	2ryy	2r	.	2ryy	2ryy	2ryy	2ryy
16G\L	.	.	.	.	.	.	.	.	.	.	.	.
16F#\JJ	.	.	.	.	.	.	.	.	.	.	.	.
16E\LL	.	.	.	.	.	.	.	.	.	.	.	.
16D\	.	.	.	.	.	.	.	.	.	.	.	.
16C#\	.	.	.	.	.	.	.	.	.	.	.	.
16BB\JJ	.	.	.	.	.	.	.	.	.	.	.	.
=7	=7	=7	=7	=7	=7	=7	=7	=7	=7	=7	=7	=7
!LO:TX:t=P:problem=mixed beam	!	!	!	!	!	!	!	!	!	!	!	!
8AA#X\L	.	6	2ryy	2ryy	2ryy	2ryy	2r	.	2ryy	2ryy	2ryy	2ryy
16F#/L	.	.	.	.	.	.	.	.	.	.	.	.
16E/JJ	.	.	.	.	.	.	.	.	.	.	.	.
8F#\L	.	.	.	.	.	.	.	.	.	.	.	.
8F#\J	.	.	.	.	.	.	.	.	.	.	.	.
!LO:LB:g=original	!	!	!	!	!	!	!	!	!	!	!	!
=8	=8	=8	=8	=8	=8	=8	=8	=8	=8	=8	=8	=8
8D\L	.	6	2ryy	2ryy	2ryy	2ryy	2r	.	2ryy	2ryy	2ryy	2ryy
16F#\L	.	.	.	.	.	.	.	.	.	.	.	.
16E\JJ	.	.	.	.	.	.	.	.	.	.	.	.
16D/LL	.	.	.	.	.	.	.	.	.	.	.	.
16C#/	.	.	.	.	.	.	.	.	.	.	.	.
16BB/	.	.	.	.	.	.	.	.	.	.	.	.
16AA/JJ	.	.	.	.	.	.	.	.	.	.	.	.
=9	=9	=9	=9	=9	=9	=9	=9	=9	=9	=9	=9	=9
16GG/LL	.	6	2ryy	2ryy	2ryy	2ryy	2r	.	2ryy	2ryy	2ryy	2ryy
16E/	.	.	.	.	.	.	.	.	.	.	.	.
16D/	.	.	.	.	.	.	.	.	.	.	.	.
16E/JJ	.	.	.	.	.	.	.	.	.	.	.	.
16GG#X/LL	.	6	.	.	.	.	.	.	.	.	.	.
16E/	.	.	.	.	.	.	.	.	.	.	.	.
16D/	.	.	.	.	.	.	.	.	.	.	.	.
16E/JJ	.	.	.	.	.	.	.	.	.	.	.	.
=10	=10	=10	=10	=10	=10	=10	=10	=10	=10	=10	=10	=10
16AA/LL	.	6	2ryy	2ryy	2ryy	2ryy	2r	.	2ryy	2ryy	2ryy	2ryy
16F#/	.	.	.	.	.	.	.	.	.	.	.	.
16E/	.	.	.	.	.	.	.	.	.	.	.	.
16F#/JJ	.	.	.	.	.	.	.	.	.	.	.	.
16AA#X/LL	.	6	.	.	.	.	.	.	.	.	.	.
16F#/	.	.	.	.	.	.	.	.	.	.	.	.
16E/	.	.	.	.	.	.	.	.	.	.	.	.
16F#/JJ	.	.	.	.	.	.	.	.	.	.	.	.
=11	=11	=11	=11	=11	=11	=11	=11	=11	=11	=11	=11	=11
16BB/LL	.	.	2ryy	2ryy	2ryy	2ryy	2r	.	2ryy	2ryy	2ryy	2ryy
16D/	.	.	.	.	.	.	.	.	.	.	.	.
16G/	.	6	.	.	.	.	.	.	.	.	.	.
16E/JJ	.	.	.	.	.	.	.	.	.	.	.	.
8F#\L	.	7 4	.	.	.	.	.	.	.	.	.	.
8F#\J	.	#	.	.	.	.	.	.	.	.	.	.
=12	=12	=12	=12	=12	=12	=12	=12	=12	=12	=12	=12	=12
4BB/	.	.	2ryy	2ryy	2ryy	2ryy	8r	.	2ryy	2ryy	2ryy	2ryy
.	.	.	.	.	.	.	8F#/	Si-	.	.	.	.
8r	.	.	.	.	.	.	8B\	-cut	.	.	.	.
!LO:TX:b:t=solo	!	!	!	!	!	!	!	!	!	!	!	!
8F#\	.	#	.	.	.	.	8c#\	lo-	.	.	.	.
=13	=13	=13	=13	=13	=13	=13	=13	=13	=13	=13	=13	=13
!LO:TX:t=P:problem=mixed beam	!LO:DY:b:t=pia&colon;	!	!	!	!	!	!	!	!	!	!	!
8B\L	p	.	2ryy	2ryy	2ryy	2ryy	8.d\	-cu-	2ryy	2ryy	2ryy	2ryy
8BB/J	.	.	.	.	.	.	.	.	.	.	.	.
.	.	.	.	.	.	.	16d\	-tus	.	.	.	.
!LO:TX:t=P:problem=mixed beam	!	!	!	!	!	!	!	!	!	!	!	!
8AA\L	.	6	.	.	.	.	4c#\	eſt	.	.	.	.
8A\J	.	.	.	.	.	.	.	.	.	.	.	.
=14	=14	=14	=14	=14	=14	=14	=14	=14	=14	=14	=14	=14
8G\L	.	.	2ryy	2ryy	2ryy	2ryy	4B\	ad	2ryy	2ryy	2ryy	2ryy
8F#\	.	.	.	.	.	.	.	.	.	.	.	.
8E\	.	6	.	.	.	.	8c#\	Pa-	.	.	.	.
8C#\J	.	7	.	.	.	.	8B\	-tres	.	.	.	.
!LO:LB:g=original	!	!	!	!	!	!	!	!	!	!	!	!
=15	=15	=15	=15	=15	=15	=15	=15	=15	=15	=15	=15	=15
8.F#\L	.	#	2ryy	2ryy	2ryy	2ryy	8A#X/	nos-	2ryy	2ryy	2ryy	2ryy
.	.	.	.	.	.	.	8F#/	-tros	.	.	.	.
16G\Jk	.	.	.	.	.	.	.	.	.	.	.	.
!	!LO:DY:b:t=for	!	!	!	!	!	!	!	!	!	!	!
16F#\LL	f	.	.	.	.	.	4r	.	.	.	.	.
16E\	.	.	.	.	.	.	.	.	.	.	.	.
16D\	.	.	.	.	.	.	.	.	.	.	.	.
16C#\JJ	.	.	.	.	.	.	.	.	.	.	.	.
=16	=16	=16	=16	=16	=16	=16	=16	=16	=16	=16	=16	=16
!LO:TX:b:t=tutti.	!	!	!	!	!	!	!	!	!	!	!	!
8D\L	.	6	2ryy	2ryy	2ryy	2ryy	2r	.	2ryy	2ryy	2ryy	2ryy
16B\L	.	.	.	.	.	.	.	.	.	.	.	.
16A#X\JJ	.	.	.	.	.	.	.	.	.	.	.	.
8B\L	.	.	.	.	.	.	.	.	.	.	.	.
8B\J	.	.	.	.	.	.	.	.	.	.	.	.
=17	=17	=17	=17	=17	=17	=17	=17	=17	=17	=17	=17	=17
8G\L	.	6	2ryy	2ryy	2ryy	2ryy	2r	.	2ryy	2ryy	2ryy	2ryy
16B\L	.	.	.	.	.	.	.	.	.	.	.	.
16An\JJ	.	.	.	.	.	.	.	.	.	.	.	.
16G\LL	.	.	.	.	.	.	.	.	.	.	.	.
16F#\	.	.	.	.	.	.	.	.	.	.	.	.
16E\	.	.	.	.	.	.	.	.	.	.	.	.
16D\JJ	.	.	.	.	.	.	.	.	.	.	.	.
=18	=18	=18	=18	=18	=18	=18	=18	=18	=18	=18	=18	=18
8C#\L	.	6	2ryy	2ryy	2ryy	2ryy	2r	.	2ryy	2ryy	2ryy	2ryy
16A\L	.	.	.	.	.	.	.	.	.	.	.	.
16G#X\JJ	.	.	.	.	.	.	.	.	.	.	.	.
8A\L	.	.	.	.	.	.	.	.	.	.	.	.
8A\J	.	.	.	.	.	.	.	.	.	.	.	.
=19	=19	=19	=19	=19	=19	=19	=19	=19	=19	=19	=19	=19
8F#\L	.	6	2ryy	2ryy	2ryy	2ryy	2r	.	2ryy	2ryy	2ryy	2ryy
16A\L	.	.	.	.	.	.	.	.	.	.	.	.
16Gn\JJ	.	.	.	.	.	.	.	.	.	.	.	.
16F#\LL	.	.	.	.	.	.	.	.	.	.	.	.
16E\	.	.	.	.	.	.	.	.	.	.	.	.
16D\	.	.	.	.	.	.	.	.	.	.	.	.
16C#\JJ	.	.	.	.	.	.	.	.	.	.	.	.
=20	=20	=20	=20	=20	=20	=20	=20	=20	=20	=20	=20	=20
8BB\L	.	6	2ryy	2ryy	2ryy	2ryy	2r	.	2ryy	2ryy	2ryy	2ryy
16G\L	.	.	.	.	.	.	.	.	.	.	.	.
16F#\JJ	.	.	.	.	.	.	.	.	.	.	.	.
8G\L	.	.	.	.	.	.	.	.	.	.	.	.
8G\J	.	.	.	.	.	.	.	.	.	.	.	.
=21	=21	=21	=21	=21	=21	=21	=21	=21	=21	=21	=21	=21
8E\L	.	6	2ryy	2ryy	2ryy	2ryy	2r	.	2ryy	2ryy	2ryy	2ryy
16G\L	.	.	.	.	.	.	.	.	.	.	.	.
16F#\JJ	.	.	.	.	.	.	.	.	.	.	.	.
16E\LL	.	.	.	.	.	.	.	.	.	.	.	.
16D\	.	.	.	.	.	.	.	.	.	.	.	.
16C#\	.	.	.	.	.	.	.	.	.	.	.	.
16BB\JJ	.	.	.	.	.	.	.	.	.	.	.	.
=22	=22	=22	=22	=22	=22	=22	=22	=22	=22	=22	=22	=22
!LO:TX:t=P:problem=mixed beam	!	!	!	!	!	!	!	!	!	!	!	!
8AA#X/L	.	6	2ryy	2ryy	2ryy	2ryy	2r	.	2ryy	2ryy	2ryy	2ryy
16F#\L	.	.	.	.	.	.	.	.	.	.	.	.
16E\JJ	.	.	.	.	.	.	.	.	.	.	.	.
8F#\L	.	.	.	.	.	.	.	.	.	.	.	.
8F#\J	.	.	.	.	.	.	.	.	.	.	.	.
!LO:LB:g=original	!	!	!	!	!	!	!	!	!	!	!	!
=23	=23	=23	=23	=23	=23	=23	=23	=23	=23	=23	=23	=23
8D\L	.	6	2ryy	2ryy	2ryy	2ryy	2r	.	2ryy	2ryy	2ryy	2ryy
16F#\L	.	.	.	.	.	.	.	.	.	.	.	.
16E\JJ	.	.	.	.	.	.	.	.	.	.	.	.
16D/LL	.	.	.	.	.	.	.	.	.	.	.	.
16C#/	.	.	.	.	.	.	.	.	.	.	.	.
16BB/	.	.	.	.	.	.	.	.	.	.	.	.
16AA/JJ	.	.	.	.	.	.	.	.	.	.	.	.
=24	=24	=24	=24	=24	=24	=24	=24	=24	=24	=24	=24	=24
16GG/LL	.	6	2ryy	2ryy	2ryy	2ryy	2r	.	2ryy	2ryy	2ryy	2ryy
!LO:TX:a:t=tutti.	!	!	!	!	!	!	!	!	!	!	!	!
16E/	.	.	.	.	.	.	.	.	.	.	.	.
16D/	.	.	.	.	.	.	.	.	.	.	.	.
16E/JJ	.	.	.	.	.	.	.	.	.	.	.	.
16GG#X/LL	.	6	.	.	.	.	.	.	.	.	.	.
16E/	.	.	.	.	.	.	.	.	.	.	.	.
16D/	.	.	.	.	.	.	.	.	.	.	.	.
16E/JJ	.	.	.	.	.	.	.	.	.	.	.	.
=25	=25	=25	=25	=25	=25	=25	=25	=25	=25	=25	=25	=25
16AA/LL	.	6	2ryy	2ryy	2ryy	2ryy	2r	.	2ryy	2ryy	2ryy	2ryy
16F#/	.	.	.	.	.	.	.	.	.	.	.	.
16E/	.	.	.	.	.	.	.	.	.	.	.	.
16F#/JJ	.	.	.	.	.	.	.	.	.	.	.	.
16AA#X/LL	.	6	.	.	.	.	.	.	.	.	.	.
16F#/	.	.	.	.	.	.	.	.	.	.	.	.
16E/	.	.	.	.	.	.	.	.	.	.	.	.
16F#/JJ	.	.	.	.	.	.	.	.	.	.	.	.
=26	=26	=26	=26	=26	=26	=26	=26	=26	=26	=26	=26	=26
16BB/LL	.	.	2ryy	2ryy	2ryy	2ryy	2r	.	2ryy	2ryy	2ryy	2ryy
16D/	.	.	.	.	.	.	.	.	.	.	.	.
16G/	.	6	.	.	.	.	.	.	.	.	.	.
16E/JJ	.	.	.	.	.	.	.	.	.	.	.	.
8F#\L	.	7 4	.	.	.	.	.	.	.	.	.	.
8F#\J	.	#	.	.	.	.	.	.	.	.	.	.
=27	=27	=27	=27	=27	=27	=27	=27	=27	=27	=27	=27	=27
4BB/	.	.	2ryy	2ryy	2ryy	2ryy	8r	.	2ryy	2ryy	2ryy	2ryy
.	.	.	.	.	.	.	8F#/	Si-	.	.	.	.
8r	.	.	.	.	.	.	8B\	-cut	.	.	.	.
!LO:TX:b:t=solo.	!LO:DY:b:t=pia&colon;	!	!	!	!	!	!	!	!	!	!	!
8F#\	p	#	.	.	.	.	8c#\	lo-	.	.	.	.
!	!	!	!	!	!	!	!LO:LB:g=original	!	!	!	!	!
=28	=28	=28	=28	=28	=28	=28	=28	=28	=28	=28	=28	=28
!LO:TX:t=P:problem=mixed beam	!	!	!	!	!	!	!	!	!	!	!	!
8B\L	.	.	2ryy	2ryy	2ryy	2ryy	8.d\	-cu-	2ryy	2ryy	2ryy	2ryy
8BB/J	.	.	.	.	.	.	.	.	.	.	.	.
.	.	.	.	.	.	.	16d\	-tus	.	.	.	.
8AA/L	.	6	.	.	.	.	4c#\	eſt	.	.	.	.
!LO:TX:t=P:problem=mixed beam	!	!	!	!	!	!	!	!	!	!	!	!
8A\J	.	.	.	.	.	.	.	.	.	.	.	.
=29	=29	=29	=29	=29	=29	=29	=29	=29	=29	=29	=29	=29
8G\L	.	.	2ryy	2ryy	2ryy	2ryy	4B\	ad	2ryy	2ryy	2ryy	2ryy
8F#\	.	.	.	.	.	.	.	.	.	.	.	.
8E\	.	6 5	.	.	.	.	8c#\	Pa-	.	.	.	.
*custos:F#	*	*	*	*	*	*	*	*	*	*	*	*
8C#\J	.	.	.	.	.	.	8B\	-tres	.	.	.	.
!LO:LB:g=original	!	!	!	!	!	!	!	!	!	!	!	!
=30	=30	=30	=30	=30	=30	=30	=30	=30	=30	=30	=30	=30
4F#\	.	#	2ryy	2ryy	2ryy	2ryy	8A#X/	noſ-	2ryy	2ryy	2ryy	2ryy
.	.	.	.	.	.	.	8F#/	-tros	.	.	.	.
4r	.	.	.	.	.	.	8r	.	.	.	.	.
.	.	.	.	.	.	.	16c#\	a-	.	.	.	.
.	.	.	.	.	.	.	16c#\	-bra-	.	.	.	.
=31	=31	=31	=31	=31	=31	=31	=31	=31	=31	=31	=31	=31
4r	.	.	2ryy	2ryy	2ryy	2ryy	8d\	-ham	2ryy	2ryy	2ryy	2ryy
.	.	.	.	.	.	.	8c#\	et	.	.	.	.
8r	.	.	.	.	.	.	16d\	Se-	.	.	.	.
.	.	.	.	.	.	.	16A#X\	-mi-	.	.	.	.
8F#\	.	#	.	.	.	.	8A#\	-ni	.	.	.	.
=32	=32	=32	=32	=32	=32	=32	=32	=32	=32	=32	=32	=32
.	.	.	.	.	.	.	8qqA/	.	.	.	.	.
8G\L	.	.	2ryy	2ryy	2ryy	2ryy	2B\	e-	2ryy	2ryy	2ryy	2ryy
8F#\	.	.	.	.	.	.	.	.	.	.	.	.
8G\	.	.	.	.	.	.	.	.	.	.	.	.
8D#X\J	.	6	.	.	.	.	.	.	.	.	.	.
=33	=33	=33	=33	=33	=33	=33	=33	=33	=33	=33	=33	=33
8E\L	.	6n	2ryy	2ryy	2ryy	2ryy	4cn\	-jus	2ryy	2ryy	2ryy	2ryy
8E\	.	.	.	.	.	.	.	.	.	.	.	.
8D\	.	7 5	.	.	.	.	4B\	in	.	.	.	.
8E#X\J	.	.	.	.	.	.	.	.	.	.	.	.
!	!	!	!	!	!	!	!LO:LB:g=original	!	!	!	!	!
=34	=34	=34	=34	=34	=34	=34	=34	=34	=34	=34	=34	=34
8F#\L	.	#	2ryy	2ryy	2ryy	2ryy	8A\L	Sae-	2ryy	2ryy	2ryy	2ryy
8A#X\J	.	.	.	.	.	.	16f#\L	.	.	.	.	.
.	.	.	.	.	.	.	16e\JJ	.	.	.	.	.
8B\L	.	.	.	.	.	.	16d\LL	.	.	.	.	.
.	.	.	.	.	.	.	16c#\	.	.	.	.	.
8D\J	.	.	.	.	.	.	16B\	.	.	.	.	.
.	.	.	.	.	.	.	16A\JJ	.	.	.	.	.
=35	=35	=35	=35	=35	=35	=35	=35	=35	=35	=35	=35	=35
8E\L	.	7	2ryy	2ryy	2ryy	2ryy	8G/	.	2ryy	2ryy	2ryy	2ryy
16G\L	.	.	.	.	.	.	4.e\	.	.	.	.	.
16F#\JJ	.	.	.	.	.	.	.	.	.	.	.	.
16E/LL	.	6	.	.	.	.	.	.	.	.	.	.
16D/	.	.	.	.	.	.	.	.	.	.	.	.
16C#/	.	.	.	.	.	.	.	.	.	.	.	.
16AA/JJ	.	.	.	.	.	.	.	.	.	.	.	.
=36	=36	=36	=36	=36	=36	=36	=36	=36	=36	=36	=36	=36
!	!	!	!	!	!	!	!LO:TX:t=P:problem=mixed beam	!	!	!	!	!
8D\L	.	.	2ryy	2ryy	2ryy	2ryy	8F#/L	.	2ryy	2ryy	2ryy	2ryy
8F#\J	.	.	.	.	.	.	16d\L	.	.	.	.	.
.	.	.	.	.	.	.	16c#\JJ	.	.	.	.	.
8G\L	.	.	.	.	.	.	16B\LL	.	.	.	.	.
.	.	.	.	.	.	.	16A\	.	.	.	.	.
!LO:TX:t=P:problem=mixed beam	!	!	!	!	!	!	!	!	!	!	!	!
8D/J	.	.	.	.	.	.	16G\	.	.	.	.	.
.	.	.	.	.	.	.	16F#\JJ	.	.	.	.	.
=37	=37	=37	=37	=37	=37	=37	=37	=37	=37	=37	=37	=37
8C#/L	.	7	2ryy	2ryy	2ryy	2ryy	8E/	.	2ryy	2ryy	2ryy	2ryy
16E/L	.	.	.	.	.	.	4.c#\	.	.	.	.	.
16D/JJ	.	.	.	.	.	.	.	.	.	.	.	.
16C#/LL	.	6\	.	.	.	.	.	.	.	.	.	.
16BB/	.	.	.	.	.	.	.	.	.	.	.	.
16AA#X/	.	.	.	.	.	.	.	.	.	.	.	.
16FF#/JJ	.	.	.	.	.	.	.	.	.	.	.	.
!LO:LB:g=original	!	!	!	!	!	!	!	!	!	!	!	!
=38	=38	=38	=38	=38	=38	=38	=38	=38	=38	=38	=38	=38
8BB/L	.	.	2ryy	2ryy	2ryy	2ryy	8D/	.	2ryy	2ryy	2ryy	2ryy
8BB/	.	.	.	.	.	.	4F#/	.	.	.	.	.
8BB/	.	.	.	.	.	.	.	.	.	.	.	.
8BB/J	.	.	.	.	.	.	[8B\	.	.	.	.	.
=39	=39	=39	=39	=39	=39	=39	=39	=39	=39	=39	=39	=39
8C#/L	.	7	2ryy	2ryy	2ryy	2ryy	8B\L]	.	2ryy	2ryy	2ryy	2ryy
8C#/	.	.	.	.	.	.	16c#\L	.	.	.	.	.
.	.	.	.	.	.	.	16B\JJ	.	.	.	.	.
8C#/	.	6	.	.	.	.	16A/LL	.	.	.	.	.
.	.	.	.	.	.	.	16G/	.	.	.	.	.
8C#/J	.	.	.	.	.	.	16F#/	.	.	.	.	.
.	.	.	.	.	.	.	16E/JJ	.	.	.	.	.
=40	=40	=40	=40	=40	=40	=40	=40	=40	=40	=40	=40	=40
8D\L	.	.	2ryy	2ryy	2ryy	2ryy	16F#/LL	.	2ryy	2ryy	2ryy	2ryy
.	.	.	.	.	.	.	16D/	.	.	.	.	.
8D\	.	.	.	.	.	.	16E/	.	.	.	.	.
.	.	.	.	.	.	.	16F#/JJ	.	.	.	.	.
8E\	.	6	.	.	.	.	16G\LL	.	.	.	.	.
.	.	.	.	.	.	.	16A\	.	.	.	.	.
8E\J	.	.	.	.	.	.	16B\	.	.	.	.	.
.	.	.	.	.	.	.	16c#\JJ	.	.	.	.	.
!	!	!	!	!	!	!	!LO:LB:g=original	!	!	!	!	!
=41	=41	=41	=41	=41	=41	=41	=41	=41	=41	=41	=41	=41
4.F#\	.	6	2ryy	2ryy	2ryy	2ryy	16d\LL	.	2ryy	2ryy	2ryy	2ryy
.	.	.	.	.	.	.	16A\	.	.	.	.	.
.	.	.	.	.	.	.	16B\	.	.	.	.	.
.	.	.	.	.	.	.	16c#\JJ	.	.	.	.	.
.	.	.	.	.	.	.	16d\LL	.	.	.	.	.
.	.	.	.	.	.	.	16e\	.	.	.	.	.
8E\	.	6	.	.	.	.	16f#\	.	.	.	.	.
.	.	.	.	.	.	.	16g\JJ	.	.	.	.	.
=42	=42	=42	=42	=42	=42	=42	=42	=42	=42	=42	=42	=42
4D/	.	.	2ryy	2ryy	2ryy	2ryy	8a\L	.	2ryy	2ryy	2ryy	2ryy
.	.	.	.	.	.	.	8c#\	.	.	.	.	.
8BB-X/L	.	6\	.	.	.	.	(8d\	.	.	.	.	.
8BB-/J	.	.	.	.	.	.	8G#X\J)	.	.	.	.	.
=43	=43	=43	=43	=43	=43	=43	=43	=43	=43	=43	=43	=43
8AA/L	.	4	2ryy	2ryy	2ryy	2ryy	4.AT/	.	2ryy	2ryy	2ryy	2ryy
8AA/	.	.	.	.	.	.	.	.	.	.	.	.
8AA/	.	7 3	.	.	.	.	.	.	.	.	.	.
8AA/J	.	.	.	.	.	.	8A/	-cu-	.	.	.	.
=44	=44	=44	=44	=44	=44	=44	=44	=44	=44	=44	=44	=44
8D\L	.	.	2ryy	2ryy	2ryy	2ryy	4D/	-la	2ryy	2ryy	2ryy	2ryy
16d\L	.	.	.	.	.	.	.	.	.	.	.	.
16c#\JJ	.	.	.	.	.	.	.	.	.	.	.	.
!LO:TX:b:t=tutti	!	!	!	!	!	!	!	!	!	!	!	!
8d\L	.	.	.	.	.	.	4r	.	.	.	.	.
8d\J	.	.	.	.	.	.	.	.	.	.	.	.
=45	=45	=45	=45	=45	=45	=45	=45	=45	=45	=45	=45	=45
!	!LO:DY:b:t=for&colon;	!	!	!	!	!	!	!	!	!	!	!
8B\L	f	6	2ryy	2ryy	2ryy	2ryy	2r	.	2ryy	2ryy	2ryy	2ryy
16d\L	.	.	.	.	.	.	.	.	.	.	.	.
16c#\JJ	.	.	.	.	.	.	.	.	.	.	.	.
16B\LL	.	.	.	.	.	.	.	.	.	.	.	.
16A\	.	.	.	.	.	.	.	.	.	.	.	.
16G\	.	.	.	.	.	.	.	.	.	.	.	.
16F#\JJ	.	.	.	.	.	.	.	.	.	.	.	.
=46	=46	=46	=46	=46	=46	=46	=46	=46	=46	=46	=46	=46
8E\L	.	6	2ryy	2ryy	2ryy	2ryy	2r	.	2ryy	2ryy	2ryy	2ryy
16c#\L	.	.	.	.	.	.	.	.	.	.	.	.
16B\JJ	.	.	.	.	.	.	.	.	.	.	.	.
8c#\L	.	.	.	.	.	.	.	.	.	.	.	.
8c#\J	.	.	.	.	.	.	.	.	.	.	.	.
=47	=47	=47	=47	=47	=47	=47	=47	=47	=47	=47	=47	=47
8A\L	.	6	2ryy	2ryy	2ryy	2ryy	2r	.	2ryy	2ryy	2ryy	2ryy
16c#\L	.	.	.	.	.	.	.	.	.	.	.	.
16B\JJ	.	.	.	.	.	.	.	.	.	.	.	.
16A\LL	.	.	.	.	.	.	.	.	.	.	.	.
16G\	.	.	.	.	.	.	.	.	.	.	.	.
16F#\	.	.	.	.	.	.	.	.	.	.	.	.
16E\JJ	.	.	.	.	.	.	.	.	.	.	.	.
!LO:LB:g=original	!	!	!	!	!	!	!	!	!	!	!	!
=48	=48	=48	=48	=48	=48	=48	=48	=48	=48	=48	=48	=48
8D\L	.	6	2ryy	2ryy	2ryy	2ryy	2r	.	2ryy	2ryy	2ryy	2ryy
16B\L	.	.	.	.	.	.	.	.	.	.	.	.
16A#X\JJ	.	.	.	.	.	.	.	.	.	.	.	.
8B\L	.	.	.	.	.	.	.	.	.	.	.	.
8B\J	.	.	.	.	.	.	.	.	.	.	.	.
=49	=49	=49	=49	=49	=49	=49	=49	=49	=49	=49	=49	=49
8G\L	.	6	2ryy	2ryy	2ryy	2ryy	2r	.	2ryy	2ryy	2ryy	2ryy
16B\L	.	.	.	.	.	.	.	.	.	.	.	.
16An\JJ	.	.	.	.	.	.	.	.	.	.	.	.
16G\LL	.	.	.	.	.	.	.	.	.	.	.	.
16F#\	.	.	.	.	.	.	.	.	.	.	.	.
16E\	.	.	.	.	.	.	.	.	.	.	.	.
16D\JJ	.	.	.	.	.	.	.	.	.	.	.	.
=50	=50	=50	=50	=50	=50	=50	=50	=50	=50	=50	=50	=50
8C#\L	.	6	2ryy	2ryy	2ryy	2ryy	2r	.	2ryy	2ryy	2ryy	2ryy
16A\L	.	.	.	.	.	.	.	.	.	.	.	.
16G\JJ	.	.	.	.	.	.	.	.	.	.	.	.
8A\L	.	.	.	.	.	.	.	.	.	.	.	.
8A\J	.	.	.	.	.	.	.	.	.	.	.	.
=51	=51	=51	=51	=51	=51	=51	=51	=51	=51	=51	=51	=51
8F#\L	.	6	2ryy	2ryy	2ryy	2ryy	2r	.	2ryy	2ryy	2ryy	2ryy
16A\L	.	.	.	.	.	.	.	.	.	.	.	.
16G\JJ	.	.	.	.	.	.	.	.	.	.	.	.
16F#\LL	.	.	.	.	.	.	.	.	.	.	.	.
16E\	.	.	.	.	.	.	.	.	.	.	.	.
16D\	.	.	.	.	.	.	.	.	.	.	.	.
16Cn\JJ	.	.	.	.	.	.	.	.	.	.	.	.
=52	=52	=52	=52	=52	=52	=52	=52	=52	=52	=52	=52	=52
8BB\L	.	6	2ryy	2ryy	2ryy	2ryy	2r	.	2ryy	2ryy	2ryy	2ryy
16G\L	.	.	.	.	.	.	.	.	.	.	.	.
16F#\JJ	.	.	.	.	.	.	.	.	.	.	.	.
16G\LL	.	.	.	.	.	.	.	.	.	.	.	.
16F#\	.	.	.	.	.	.	.	.	.	.	.	.
16E\	.	.	.	.	.	.	.	.	.	.	.	.
16D\JJ	.	.	.	.	.	.	.	.	.	.	.	.
=53	=53	=53	=53	=53	=53	=53	=53	=53	=53	=53	=53	=53
8C#X\L	.	6	2ryy	2ryy	2ryy	2ryy	2r	.	2ryy	2ryy	2ryy	2ryy
16A\L	.	.	.	.	.	.	.	.	.	.	.	.
16G\JJ	.	.	.	.	.	.	.	.	.	.	.	.
16A\LL	.	.	.	.	.	.	.	.	.	.	.	.
16G\	.	.	.	.	.	.	.	.	.	.	.	.
16F#\	.	.	.	.	.	.	.	.	.	.	.	.
16E\JJ	.	.	.	.	.	.	.	.	.	.	.	.
=54	=54	=54	=54	=54	=54	=54	=54	=54	=54	=54	=54	=54
8D\L	.	6	2ryy	2ryy	2ryy	2ryy	2r	.	2ryy	2ryy	2ryy	2ryy
16B\L	.	.	.	.	.	.	.	.	.	.	.	.
16A\JJ	.	.	.	.	.	.	.	.	.	.	.	.
16B\LL	.	.	.	.	.	.	.	.	.	.	.	.
16A\	.	.	.	.	.	.	.	.	.	.	.	.
16G\	.	.	.	.	.	.	.	.	.	.	.	.
16F#\JJ	.	.	.	.	.	.	.	.	.	.	.	.
=55	=55	=55	=55	=55	=55	=55	=55	=55	=55	=55	=55	=55
8E\L	.	6	2ryy	2ryy	2ryy	2ryy	2r	.	2ryy	2ryy	2ryy	2ryy
16c#\L	.	.	.	.	.	.	.	.	.	.	.	.
16B\JJ	.	.	.	.	.	.	.	.	.	.	.	.
16c#\LL	.	.	.	.	.	.	.	.	.	.	.	.
16B\	.	.	.	.	.	.	.	.	.	.	.	.
16A\	.	.	.	.	.	.	.	.	.	.	.	.
16G\JJ	.	.	.	.	.	.	.	.	.	.	.	.
!LO:LB:g=original	!	!	!	!	!	!	!	!	!	!	!	!
=56	=56	=56	=56	=56	=56	=56	=56	=56	=56	=56	=56	=56
16F#\LL	.	6	2ryy	2ryy	2ryy	2ryy	2r	.	2ryy	2ryy	2ryy	2ryy
16D\	.	.	.	.	.	.	.	.	.	.	.	.
16E\	.	.	.	.	.	.	.	.	.	.	.	.
16F#\JJ	.	.	.	.	.	.	.	.	.	.	.	.
16G\LL	.	.	.	.	.	.	.	.	.	.	.	.
16A\	.	.	.	.	.	.	.	.	.	.	.	.
16B\	.	.	.	.	.	.	.	.	.	.	.	.
16c#\JJ	.	.	.	.	.	.	.	.	.	.	.	.
=57	=57	=57	=57	=57	=57	=57	=57	=57	=57	=57	=57	=57
8d\L	.	.	2ryy	2ryy	2ryy	2ryy	2r	.	2ryy	2ryy	2ryy	2ryy
16d\L	.	.	.	.	.	.	.	.	.	.	.	.
16c#\JJ	.	.	.	.	.	.	.	.	.	.	.	.
8d\L	.	.	.	.	.	.	.	.	.	.	.	.
16d\L	.	.	.	.	.	.	.	.	.	.	.	.
16c#\JJ	.	.	.	.	.	.	.	.	.	.	.	.
=58	=58	=58	=58	=58	=58	=58	=58	=58	=58	=58	=58	=58
8d\L	.	.	2ryy	2ryy	2ryy	2ryy	2r	.	2ryy	2ryy	2ryy	2ryy
8G#X\J	.	7 5	.	.	.	.	.	.	.	.	.	.
!LO:TX:t=P:problem=mixed beam	!	!	!	!	!	!	!	!	!	!	!	!
8A\L	.	4	.	.	.	.	.	.	.	.	.	.
8AA/J	.	3	.	.	.	.	.	.	.	.	.	.
=59	=59	=59	=59	=59	=59	=59	=59	=59	=59	=59	=59	=59
4D/	.	.	2ryy	2ryy	2ryy	2ryy	8r	.	2ryy	2ryy	2ryy	2ryy
.	.	.	.	.	.	.	8A\	si-	.	.	.	.
8r	.	.	.	.	.	.	8d\	-cut	.	.	.	.
!LO:TX:b:t=Solo	!LO:DY:b:t=pia&colon;	!	!	!	!	!	!	!	!	!	!	!
8A\	p	.	.	.	.	.	8e\	lo-	.	.	.	.
=60	=60	=60	=60	=60	=60	=60	=60	=60	=60	=60	=60	=60
!LO:TX:t=P:problem=mixed beam	!	!	!	!	!	!	!	!	!	!	!	!
8d\L	.	.	2ryy	2ryy	2ryy	2ryy	8.f#\	-cu-	2ryy	2ryy	2ryy	2ryy
8D/J	.	.	.	.	.	.	.	.	.	.	.	.
.	.	.	.	.	.	.	16f#\	-tus	.	.	.	.
!LO:TX:t=P:problem=mixed beam	!	!	!	!	!	!	!	!	!	!	!	!
8C#/L	.	6	.	.	.	.	4e\	est	.	.	.	.
8c#\J	.	.	.	.	.	.	.	.	.	.	.	.
=61	=61	=61	=61	=61	=61	=61	=61	=61	=61	=61	=61	=61
8B\L	.	.	2ryy	2ryy	2ryy	2ryy	4d\	ad	2ryy	2ryy	2ryy	2ryy
8A\	.	.	.	.	.	.	.	.	.	.	.	.
8G#X\	.	6 5	.	.	.	.	8e\	Pa-	.	.	.	.
8E\J	.	.	.	.	.	.	8d\	-tres	.	.	.	.
!	!	!	!	!	!	!	!LO:LB:g=original	!	!	!	!	!
=62	=62	=62	=62	=62	=62	=62	=62	=62	=62	=62	=62	=62
8.A\L	.	.	2ryy	2ryy	2ryy	2ryy	8c#\	nos-	2ryy	2ryy	2ryy	2ryy
.	.	.	.	.	.	.	8A\	-tros	.	.	.	.
16B\Jk	.	.	.	.	.	.	.	.	.	.	.	.
16A\LL	.	.	.	.	.	.	4r	.	.	.	.	.
!	!LO:DY:b:t=for	!	!	!	!	!	!	!	!	!	!	!
16Gn\	f	.	.	.	.	.	.	.	.	.	.	.
16F#\	.	.	.	.	.	.	.	.	.	.	.	.
!LO:SIC:v:t=F#	!	!	!	!	!	!	!	!	!	!	!	!
16E\JJ	.	.	.	.	.	.	.	.	.	.	.	.
!LO:LB:g=original	!	!	!	!	!	!	!	!	!	!	!	!
=63	=63	=63	=63	=63	=63	=63	=63	=63	=63	=63	=63	=63
!	!	!	!	!	!	!	!LO:TX:a:t=25.	!	!	!	!	!
8F#\L	.	6	2ryy	2ryy	2ryy	2ryy	2r	.	2ryy	2ryy	2ryy	2ryy
16d\L	.	.	.	.	.	.	.	.	.	.	.	.
!LO:TX:b:t=Tutti.	!	!	!	!	!	!	!	!	!	!	!	!
16c#\JJ	.	.	.	.	.	.	.	.	.	.	.	.
8d\L	.	.	.	.	.	.	.	.	.	.	.	.
8d\J	.	.	.	.	.	.	.	.	.	.	.	.
=64	=64	=64	=64	=64	=64	=64	=64	=64	=64	=64	=64	=64
8B\L	.	6	2ryy	2ryy	2ryy	2ryy	2r	.	2ryy	2ryy	2ryy	2ryy
16d\L	.	.	.	.	.	.	.	.	.	.	.	.
16c#\JJ	.	.	.	.	.	.	.	.	.	.	.	.
16B\LL	.	.	.	.	.	.	.	.	.	.	.	.
16A\	.	.	.	.	.	.	.	.	.	.	.	.
16G\	.	.	.	.	.	.	.	.	.	.	.	.
16F#\JJ	.	.	.	.	.	.	.	.	.	.	.	.
=65	=65	=65	=65	=65	=65	=65	=65	=65	=65	=65	=65	=65
8E\L	.	6	2ryy	2ryy	2ryy	2ryy	2r	.	2ryy	2ryy	2ryy	2ryy
16c#\L	.	.	.	.	.	.	.	.	.	.	.	.
16B\JJ	.	.	.	.	.	.	.	.	.	.	.	.
8c#\L	.	.	.	.	.	.	.	.	.	.	.	.
8c#\J	.	.	.	.	.	.	.	.	.	.	.	.
=66	=66	=66	=66	=66	=66	=66	=66	=66	=66	=66	=66	=66
8A\L	.	6	2ryy	2ryy	2ryy	2ryy	2r	.	2ryy	2ryy	2ryy	2ryy
16c#\L	.	.	.	.	.	.	.	.	.	.	.	.
16B\JJ	.	.	.	.	.	.	.	.	.	.	.	.
16A\LL	.	.	.	.	.	.	.	.	.	.	.	.
16G\	.	.	.	.	.	.	.	.	.	.	.	.
16F#\	.	.	.	.	.	.	.	.	.	.	.	.
16E\JJ	.	.	.	.	.	.	.	.	.	.	.	.
=67	=67	=67	=67	=67	=67	=67	=67	=67	=67	=67	=67	=67
8D\L	.	6	2ryy	2ryy	2ryy	2ryy	2r	.	2ryy	2ryy	2ryy	2ryy
16B\L	.	.	.	.	.	.	.	.	.	.	.	.
16A#X\JJ	.	.	.	.	.	.	.	.	.	.	.	.
8B\L	.	.	.	.	.	.	.	.	.	.	.	.
8B\J	.	.	.	.	.	.	.	.	.	.	.	.
=68	=68	=68	=68	=68	=68	=68	=68	=68	=68	=68	=68	=68
8G\L	.	6	2ryy	2ryy	2ryy	2ryy	2r	.	2ryy	2ryy	2ryy	2ryy
16B\L	.	.	.	.	.	.	.	.	.	.	.	.
16A\JJ	.	.	.	.	.	.	.	.	.	.	.	.
16G\LL	.	.	.	.	.	.	.	.	.	.	.	.
16F#\	.	.	.	.	.	.	.	.	.	.	.	.
16E\	.	.	.	.	.	.	.	.	.	.	.	.
16D\JJ	.	.	.	.	.	.	.	.	.	.	.	.
=69	=69	=69	=69	=69	=69	=69	=69	=69	=69	=69	=69	=69
8C#\L	.	6	2ryy	2ryy	2ryy	2ryy	2r	.	2ryy	2ryy	2ryy	2ryy
16A\L	.	.	.	.	.	.	.	.	.	.	.	.
16G\JJ	.	.	.	.	.	.	.	.	.	.	.	.
8A\L	.	.	.	.	.	.	.	.	.	.	.	.
8A\J	.	.	.	.	.	.	.	.	.	.	.	.
=70	=70	=70	=70	=70	=70	=70	=70	=70	=70	=70	=70	=70
8F#\L	.	6	2ryy	2ryy	2ryy	2ryy	2r	.	2ryy	2ryy	2ryy	2ryy
16A\L	.	.	.	.	.	.	.	.	.	.	.	.
16G\JJ	.	.	.	.	.	.	.	.	.	.	.	.
!LO:LB:g=original	!	!	!	!	!	!	!	!	!	!	!	!
16F#\LL	.	.	.	.	.	.	.	.	.	.	.	.
16E\	.	.	.	.	.	.	.	.	.	.	.	.
16D\	.	.	.	.	.	.	.	.	.	.	.	.
16Cn\JJ	.	.	.	.	.	.	.	.	.	.	.	.
=71	=71	=71	=71	=71	=71	=71	=71	=71	=71	=71	=71	=71
8BB\L	.	6	2ryy	2ryy	2ryy	2ryy	2r	.	2ryy	2ryy	2ryy	2ryy
16G\L	.	.	.	.	.	.	.	.	.	.	.	.
16F#\JJ	.	.	.	.	.	.	.	.	.	.	.	.
16G\LL	.	.	.	.	.	.	.	.	.	.	.	.
16F#\	.	.	.	.	.	.	.	.	.	.	.	.
16E\	.	.	.	.	.	.	.	.	.	.	.	.
16D\JJ	.	.	.	.	.	.	.	.	.	.	.	.
=72	=72	=72	=72	=72	=72	=72	=72	=72	=72	=72	=72	=72
8C#X\L	.	6	2ryy	2ryy	2ryy	2ryy	2r	.	2ryy	2ryy	2ryy	2ryy
16A\L	.	.	.	.	.	.	.	.	.	.	.	.
16G\JJ	.	.	.	.	.	.	.	.	.	.	.	.
16A\LL	.	.	.	.	.	.	.	.	.	.	.	.
16G\	.	.	.	.	.	.	.	.	.	.	.	.
16F#\	.	.	.	.	.	.	.	.	.	.	.	.
16E\JJ	.	.	.	.	.	.	.	.	.	.	.	.
=73	=73	=73	=73	=73	=73	=73	=73	=73	=73	=73	=73	=73
8D\L	.	6	2ryy	2ryy	2ryy	2ryy	2r	.	2ryy	2ryy	2ryy	2ryy
16B\L	.	.	.	.	.	.	.	.	.	.	.	.
16A\JJ	.	.	.	.	.	.	.	.	.	.	.	.
16B\LL	.	.	.	.	.	.	.	.	.	.	.	.
16A\	.	.	.	.	.	.	.	.	.	.	.	.
16G\	.	.	.	.	.	.	.	.	.	.	.	.
16F#\JJ	.	.	.	.	.	.	.	.	.	.	.	.
=74	=74	=74	=74	=74	=74	=74	=74	=74	=74	=74	=74	=74
8E\L	.	6	2ryy	2ryy	2ryy	2ryy	2r	.	2ryy	2ryy	2ryy	2ryy
16c#\L	.	.	.	.	.	.	.	.	.	.	.	.
16B\JJ	.	.	.	.	.	.	.	.	.	.	.	.
16c#\LL	.	.	.	.	.	.	.	.	.	.	.	.
16B\	.	.	.	.	.	.	.	.	.	.	.	.
16A\	.	.	.	.	.	.	.	.	.	.	.	.
16G\JJ	.	.	.	.	.	.	.	.	.	.	.	.
=75	=75	=75	=75	=75	=75	=75	=75	=75	=75	=75	=75	=75
16F#\LL	.	6	2ryy	2ryy	2ryy	2ryy	2r	.	2ryy	2ryy	2ryy	2ryy
16D\	.	.	.	.	.	.	.	.	.	.	.	.
16E\	.	.	.	.	.	.	.	.	.	.	.	.
16F#\JJ	.	.	.	.	.	.	.	.	.	.	.	.
16G\LL	.	.	.	.	.	.	.	.	.	.	.	.
16A\	.	.	.	.	.	.	.	.	.	.	.	.
16B\	.	.	.	.	.	.	.	.	.	.	.	.
16c#\JJ	.	.	.	.	.	.	.	.	.	.	.	.
=76	=76	=76	=76	=76	=76	=76	=76	=76	=76	=76	=76	=76
8d\L	.	.	2ryy	2ryy	2ryy	2ryy	2r	.	2ryy	2ryy	2ryy	2ryy
16d\L	.	.	.	.	.	.	.	.	.	.	.	.
16c#\JJ	.	.	.	.	.	.	.	.	.	.	.	.
8d\L	.	.	.	.	.	.	.	.	.	.	.	.
16d\L	.	.	.	.	.	.	.	.	.	.	.	.
16c#\JJ	.	.	.	.	.	.	.	.	.	.	.	.
!LO:LB:g=original	!	!	!	!	!	!	!	!	!	!	!	!
=77	=77	=77	=77	=77	=77	=77	=77	=77	=77	=77	=77	=77
!LO:TX:a:t=P:problem=mixed beam	!	!	!	!	!	!	!	!	!	!	!	!
8d\L	.	.	2ryy	2ryy	2ryy	2ryy	2r	.	2ryy	2ryy	2ryy	2ryy
8G#X\	.	7 5	.	.	.	.	.	.	.	.	.	.
8A\	.	6 4	.	.	.	.	.	.	.	.	.	.
8AA/J	.	7 3	.	.	.	.	.	.	.	.	.	.
=78	=78	=78	=78	=78	=78	=78	=78	=78	=78	=78	=78	=78
4D\	.	.	2ryy	2ryy	2ryy	2ryy	8r	.	2ryy	2ryy	2ryy	2ryy
.	.	.	.	.	.	.	8A\	Si-	.	.	.	.
8r	.	.	.	.	.	.	8d\	-cut	.	.	.	.
!LO:TX:b:t=piano solo.	!	!	!	!	!	!	!	!	!	!	!	!
8AA/	.	.	.	.	.	.	8e\	lo-	.	.	.	.
=79	=79	=79	=79	=79	=79	=79	=79	=79	=79	=79	=79	=79
8D\L	.	.	2ryy	2ryy	2ryy	2ryy	8.f#\	-cu-	2ryy	2ryy	2ryy	2ryy
!LO:TX:a:t=P:problem=mixed beam	!	!	!	!	!	!	!	!	!	!	!	!
8d\	.	.	.	.	.	.	.	.	.	.	.	.
.	.	.	.	.	.	.	16f#\	-tus	.	.	.	.
8c#\	.	6	.	.	.	.	4e\	est	.	.	.	.
8C#/J	.	.	.	.	.	.	.	.	.	.	.	.
=80	=80	=80	=80	=80	=80	=80	=80	=80	=80	=80	=80	=80
8BB/L	.	.	2ryy	2ryy	2ryy	2ryy	4d\	ad	2ryy	2ryy	2ryy	2ryy
!LO:TX:a:t=P:problem=mixed beam	!	!	!	!	!	!	!	!	!	!	!	!
8B\	.	.	.	.	.	.	.	.	.	.	.	.
8G#X\	.	6 5	.	.	.	.	8e\	Pa-	.	.	.	.
8E\J	.	.	.	.	.	.	8d\	-tres	.	.	.	.
=81	=81	=81	=81	=81	=81	=81	=81	=81	=81	=81	=81	=81
4AA/	.	.	2ryy	2ryy	2ryy	2ryy	8c#\	nos-	2ryy	2ryy	2ryy	2ryy
.	.	.	.	.	.	.	8A\	-tros	.	.	.	.
4r	.	.	.	.	.	.	8r	.	.	.	.	.
.	.	.	.	.	.	.	16A/	A-	.	.	.	.
.	.	.	.	.	.	.	16A/	-bra-	.	.	.	.
=82	=82	=82	=82	=82	=82	=82	=82	=82	=82	=82	=82	=82
4r	.	.	2ryy	2ryy	2ryy	2ryy	8d\	-ham	2ryy	2ryy	2ryy	2ryy
.	.	.	.	.	.	.	8c#\	et	.	.	.	.
!	!	!	!	!	!	!	!LO:LB:g=original	!	!	!	!	!
8r	.	.	.	.	.	.	16d\	se-	.	.	.	.
.	.	.	.	.	.	.	16A\	-mi-	.	.	.	.
8D\	.	.	.	.	.	.	8A\	-ni	.	.	.	.
=83	=83	=83	=83	=83	=83	=83	=83	=83	=83	=83	=83	=83
8G\L	.	.	2ryy	2ryy	2ryy	2ryy	4d\	e-	2ryy	2ryy	2ryy	2ryy
8F#\	.	.	.	.	.	.	.	.	.	.	.	.
8G\	.	.	.	.	.	.	8d\	-jus	.	.	.	.
8D#X\J	.	6	.	.	.	.	16d\	A-	.	.	.	.
.	.	.	.	.	.	.	16d\	-bra-	.	.	.	.
=84	=84	=84	=84	=84	=84	=84	=84	=84	=84	=84	=84	=84
4.E\	.	#	2ryy	2ryy	2ryy	2ryy	8e\	-ham	2ryy	2ryy	2ryy	2ryy
.	.	.	.	.	.	.	8d#X\	et	.	.	.	.
.	.	.	.	.	.	.	16e\	se-	.	.	.	.
.	.	.	.	.	.	.	16B\	-mi-	.	.	.	.
8E\	.	.	.	.	.	.	8B\	-ni	.	.	.	.
=85	=85	=85	=85	=85	=85	=85	=85	=85	=85	=85	=85	=85
8A\L	.	.	2ryy	2ryy	2ryy	2ryy	4c#\	e-	2ryy	2ryy	2ryy	2ryy
8G#X\	.	.	.	.	.	.	.	.	.	.	.	.
8A\	.	.	.	.	.	.	8c#\	-jus	.	.	.	.
8E#X\J	.	6	.	.	.	.	16c#\	A-	.	.	.	.
.	.	.	.	.	.	.	16c#\	-bra-	.	.	.	.
=86	=86	=86	=86	=86	=86	=86	=86	=86	=86	=86	=86	=86
4.F#\	.	#	2ryy	2ryy	2ryy	2ryy	8f#\	-ham	2ryy	2ryy	2ryy	2ryy
.	.	.	.	.	.	.	8e#X\	et	.	.	.	.
.	.	.	.	.	.	.	16f#\	Se-	.	.	.	.
.	.	.	.	.	.	.	16c#\	-mi-	.	.	.	.
8F#\	.	.	.	.	.	.	8c#\	-ni	.	.	.	.
!LO:PB:g=original	!	!	!	!	!	!	!LO:LB:g=original	!	!	!	!	!
=87	=87	=87	=87	=87	=87	=87	=87	=87	=87	=87	=87	=87
8B\L	.	.	2ryy	2ryy	2ryy	2ryy	[4d\	e-	2ryy	2ryy	2ryy	2ryy
8A\	.	.	.	.	.	.	.	.	.	.	.	.
8G#X\	.	6 5	.	.	.	.	16d\LL]	.	.	.	.	.
.	.	.	.	.	.	.	16B\	.	.	.	.	.
8E\J	.	.	.	.	.	.	16e\	.	.	.	.	.
.	.	.	.	.	.	.	16d\JJ	.	.	.	.	.
=88	=88	=88	=88	=88	=88	=88	=88	=88	=88	=88	=88	=88
8A\L	.	n	2ryy	2ryy	2ryy	2ryy	[4cn\	.	2ryy	2ryy	2ryy	2ryy
8Gn\	.	.	.	.	.	.	.	.	.	.	.	.
8F#\	.	6 5	.	.	.	.	16c\LL]	.	.	.	.	.
.	.	.	.	.	.	.	16A\	.	.	.	.	.
8D\J	.	.	.	.	.	.	16d\	.	.	.	.	.
.	.	.	.	.	.	.	16cn\JJ	.	.	.	.	.
=89	=89	=89	=89	=89	=89	=89	=89	=89	=89	=89	=89	=89
8G\L	.	.	2ryy	2ryy	2ryy	2ryy	[4B\	.	2ryy	2ryy	2ryy	2ryy
8F#\	.	.	.	.	.	.	.	.	.	.	.	.
8E\	.	n6 5	.	.	.	.	16B\LL]	.	.	.	.	.
.	.	.	.	.	.	.	16G\	.	.	.	.	.
8Cn\J	.	.	.	.	.	.	16cn\	.	.	.	.	.
.	.	.	.	.	.	.	16B\JJ	.	.	.	.	.
=90	=90	=90	=90	=90	=90	=90	=90	=90	=90	=90	=90	=90
8F#\L	.	-5	2ryy	2ryy	2ryy	2ryy	[4A\	.	2ryy	2ryy	2ryy	2ryy
8E\	.	.	.	.	.	.	.	.	.	.	.	.
8D#X\	.	6 5	.	.	.	.	16A\LL]	.	.	.	.	.
.	.	.	.	.	.	.	16F#\	.	.	.	.	.
8BB\J	.	.	.	.	.	.	16B\	.	.	.	.	.
.	.	.	.	.	.	.	16A\JJ	.	.	.	.	.
=91	=91	=91	=91	=91	=91	=91	=91	=91	=91	=91	=91	=91
4E\	.	.	2ryy	2ryy	2ryy	2ryy	16G\LL	.	2ryy	2ryy	2ryy	2ryy
.	.	.	.	.	.	.	16cn\	.	.	.	.	.
.	.	.	.	.	.	.	16B\	.	.	.	.	.
.	.	.	.	.	.	.	16A#X\JJ	.	.	.	.	.
16r	.	.	.	.	.	.	[4B\	.	.	.	.	.
16E\LL	.	.	.	.	.	.	.	.	.	.	.	.
16D#X\	.	.	.	.	.	.	.	.	.	.	.	.
16C#X\JJ	.	.	.	.	.	.	.	.	.	.	.	.
=92	=92	=92	=92	=92	=92	=92	=92	=92	=92	=92	=92	=92
4BB/	.	#	2ryy	2ryy	2ryy	2ryy	16B\LL]	.	2ryy	2ryy	2ryy	2ryy
.	.	.	.	.	.	.	16cn\	.	.	.	.	.
.	.	.	.	.	.	.	16B\	.	.	.	.	.
.	.	.	.	.	.	.	16A#X\JJ	.	.	.	.	.
16r	.	.	.	.	.	.	[4B\	.	.	.	.	.
16BB/LL	.	.	.	.	.	.	.	.	.	.	.	.
16C#/	.	.	.	.	.	.	.	.	.	.	.	.
16D#X/JJ	.	.	.	.	.	.	.	.	.	.	.	.
!	!	!	!	!	!	!	!LO:LB:g=original	!	!	!	!	!
=93	=93	=93	=93	=93	=93	=93	=93	=93	=93	=93	=93	=93
8E\L	.	.	2ryy	2ryy	2ryy	2ryy	16B\LL]	.	2ryy	2ryy	2ryy	2ryy
.	.	.	.	.	.	.	16e\	.	.	.	.	.
8F#\	.	.	.	.	.	.	16d\	.	.	.	.	.
.	.	.	.	.	.	.	16cn\JJ	.	.	.	.	.
8G\	.	6	.	.	.	.	8B\	jus	.	.	.	.
!LO:SIC:v:t=B	!	!	!	!	!	!	!	!	!	!	!	!
8A\J	.	.	.	.	.	.	8A/	in	.	.	.	.
!LO:LB:g=original	!	!	!	!	!	!	!	!	!	!	!	!
=94	=94	=94	=94	=94	=94	=94	=94	=94	=94	=94	=94	=94
16B\LL	.	6 4	2ryy	2ryy	2ryy	2ryy	4G/	Sae-	2ryy	2ryy	2ryy	2ryy
16A\	.	.	.	.	.	.	.	.	.	.	.	.
16G\	.	.	.	.	.	.	.	.	.	.	.	.
16A\JJ	.	.	.	.	.	.	.	.	.	.	.	.
!LO:TX:t=P:problem=mixed beam	!	!	!	!	!	!	!	!	!	!	!	!
8B\L	.	5 #	.	.	.	.	8.F#t/	.	.	.	.	.
8BB/J	.	.	.	.	.	.	.	.	.	.	.	.
.	.	.	.	.	.	.	16E/	-cu-	.	.	.	.
=95	=95	=95	=95	=95	=95	=95	=95	=95	=95	=95	=95	=95
8E\L	.	.	2ryy	2ryy	2ryy	2ryy	4E/	-la	2ryy	2ryy	2ryy	2ryy
!LO:TX:b:t=Tutti	!	!	!	!	!	!	!	!	!	!	!	!
16e\L	.	.	.	.	.	.	.	.	.	.	.	.
16d#X\JJ	.	.	.	.	.	.	.	.	.	.	.	.
!	!LO:DY:b:t=for	!	!	!	!	!	!	!	!	!	!	!
8e\L	f	.	.	.	.	.	4r	.	.	.	.	.
8e\J	.	.	.	.	.	.	.	.	.	.	.	.
=96	=96	=96	=96	=96	=96	=96	=96	=96	=96	=96	=96	=96
!	!	!	!	!	!	!	!LO:TX:a:t=10.	!	!	!	!	!
8cn\L	.	6	2ryy	2ryy	2ryy	2ryy	2r	.	2ryy	2ryy	2ryy	2ryy
16e\L	.	.	.	.	.	.	.	.	.	.	.	.
16d\JJ	.	.	.	.	.	.	.	.	.	.	.	.
16cn\LL	.	.	.	.	.	.	.	.	.	.	.	.
16B\	.	.	.	.	.	.	.	.	.	.	.	.
16A\	.	.	.	.	.	.	.	.	.	.	.	.
16G\JJ	.	.	.	.	.	.	.	.	.	.	.	.
=97	=97	=97	=97	=97	=97	=97	=97	=97	=97	=97	=97	=97
8F#\L	.	6	2ryy	2ryy	2ryy	2ryy	2r	.	2ryy	2ryy	2ryy	2ryy
16d\L	.	.	.	.	.	.	.	.	.	.	.	.
16c#X\JJ	.	.	.	.	.	.	.	.	.	.	.	.
8d\L	.	.	.	.	.	.	.	.	.	.	.	.
8d\J	.	.	.	.	.	.	.	.	.	.	.	.
=98	=98	=98	=98	=98	=98	=98	=98	=98	=98	=98	=98	=98
8B\L	.	6	2ryy	2ryy	2ryy	2ryy	2r	.	2ryy	2ryy	2ryy	2ryy
16d\L	.	.	.	.	.	.	.	.	.	.	.	.
16cn\JJ	.	.	.	.	.	.	.	.	.	.	.	.
16B\LL	.	.	.	.	.	.	.	.	.	.	.	.
16A\	.	.	.	.	.	.	.	.	.	.	.	.
16G\	.	.	.	.	.	.	.	.	.	.	.	.
16F#\JJ	.	.	.	.	.	.	.	.	.	.	.	.
=99	=99	=99	=99	=99	=99	=99	=99	=99	=99	=99	=99	=99
8E\L	.	6	2ryy	2ryy	2ryy	2ryy	2r	.	2ryy	2ryy	2ryy	2ryy
16cn\L	.	.	.	.	.	.	.	.	.	.	.	.
16B\JJ	.	.	.	.	.	.	.	.	.	.	.	.
8c\L	.	.	.	.	.	.	.	.	.	.	.	.
8c\J	.	.	.	.	.	.	.	.	.	.	.	.
=100	=100	=100	=100	=100	=100	=100	=100	=100	=100	=100	=100	=100
8A\L	.	6 n	2ryy	2ryy	2ryy	2ryy	2r	.	2ryy	2ryy	2ryy	2ryy
16cn\L	.	.	.	.	.	.	.	.	.	.	.	.
16B\JJ	.	.	.	.	.	.	.	.	.	.	.	.
16A\LL	.	.	.	.	.	.	.	.	.	.	.	.
16G\	.	.	.	.	.	.	.	.	.	.	.	.
16F#\	.	.	.	.	.	.	.	.	.	.	.	.
16E\JJ	.	.	.	.	.	.	.	.	.	.	.	.
!LO:LB:g=original	!	!	!	!	!	!	!	!	!	!	!	!
=101	=101	=101	=101	=101	=101	=101	=101	=101	=101	=101	=101	=101
8D#X\L	.	6	2ryy	2ryy	2ryy	2ryy	2r	.	2ryy	2ryy	2ryy	2ryy
16B\L	.	.	.	.	.	.	.	.	.	.	.	.
16A#X\JJ	.	.	.	.	.	.	.	.	.	.	.	.
8B\L	.	.	.	.	.	.	.	.	.	.	.	.
8B\J	.	.	.	.	.	.	.	.	.	.	.	.
=102	=102	=102	=102	=102	=102	=102	=102	=102	=102	=102	=102	=102
8G\L	.	6	2ryy	2ryy	2ryy	2ryy	2r	.	2ryy	2ryy	2ryy	2ryy
16B\L	.	.	.	.	.	.	.	.	.	.	.	.
16An\JJ	.	.	.	.	.	.	.	.	.	.	.	.
16G\LL	.	.	.	.	.	.	.	.	.	.	.	.
16F#\	.	.	.	.	.	.	.	.	.	.	.	.
16E\	.	.	.	.	.	.	.	.	.	.	.	.
16D\JJ	.	.	.	.	.	.	.	.	.	.	.	.
=103	=103	=103	=103	=103	=103	=103	=103	=103	=103	=103	=103	=103
16Cn\LL	.	6	2ryy	2ryy	2ryy	2ryy	2r	.	2ryy	2ryy	2ryy	2ryy
16A\	.	.	.	.	.	.	.	.	.	.	.	.
16G#X\	.	.	.	.	.	.	.	.	.	.	.	.
16A\JJ	.	.	.	.	.	.	.	.	.	.	.	.
16C#X\LL	.	6	.	.	.	.	.	.	.	.	.	.
16A\	.	.	.	.	.	.	.	.	.	.	.	.
16A\	.	.	.	.	.	.	.	.	.	.	.	.
16A\JJ	.	.	.	.	.	.	.	.	.	.	.	.
=104	=104	=104	=104	=104	=104	=104	=104	=104	=104	=104	=104	=104
16D\LL	.	6	2ryy	2ryy	2ryy	2ryy	2r	.	2ryy	2ryy	2ryy	2ryy
16B\	.	.	.	.	.	.	.	.	.	.	.	.
16A\	.	.	.	.	.	.	.	.	.	.	.	.
16B\JJ	.	.	.	.	.	.	.	.	.	.	.	.
16D#X\LL	.	6	.	.	.	.	.	.	.	.	.	.
16B\	.	.	.	.	.	.	.	.	.	.	.	.
16A\	.	.	.	.	.	.	.	.	.	.	.	.
16B\JJ	.	.	.	.	.	.	.	.	.	.	.	.
=105	=105	=105	=105	=105	=105	=105	=105	=105	=105	=105	=105	=105
16E\LL	.	.	2ryy	2ryy	2ryy	2ryy	2r	.	2ryy	2ryy	2ryy	2ryy
16G\	.	.	.	.	.	.	.	.	.	.	.	.
16cn\	.	6	.	.	.	.	.	.	.	.	.	.
16A\JJ	.	.	.	.	.	.	.	.	.	.	.	.
8B\L	.	7 4	.	.	.	.	.	.	.	.	.	.
8B\J	.	#	.	.	.	.	.	.	.	.	.	.
!LO:LB:g=original	!	!	!	!	!	!	!	!	!	!	!	!
=106	=106	=106	=106	=106	=106	=106	=106	=106	=106	=106	=106	=106
4E\	.	.	2ryy	2ryy	2ryy	2ryy	8r	.	2ryy	2ryy	2ryy	2ryy
.	.	.	.	.	.	.	8B\	Si-	.	.	.	.
8r	.	.	.	.	.	.	8e\	-cut	.	.	.	.
!LO:TX:b:t=Solo	!	!	!	!	!	!	!	!	!	!	!	!
8BB/	.	#	.	.	.	.	8f#\	lo-	.	.	.	.
=107	=107	=107	=107	=107	=107	=107	=107	=107	=107	=107	=107	=107
!	!LO:DY:b:t=piano.	!	!	!	!	!	!	!	!	!	!	!
8E\L	p	.	2ryy	2ryy	2ryy	2ryy	8.g\	-cu-	2ryy	2ryy	2ryy	2ryy
8B\J	.	.	.	.	.	.	.	.	.	.	.	.
.	.	.	.	.	.	.	16g\	-tus	.	.	.	.
8Dn\L	.	6	.	.	.	.	4f#\	est	.	.	.	.
8B\J	.	.	.	.	.	.	.	.	.	.	.	.
=108	=108	=108	=108	=108	=108	=108	=108	=108	=108	=108	=108	=108
8Cn\L	.	.	2ryy	2ryy	2ryy	2ryy	4e\	ad	2ryy	2ryy	2ryy	2ryy
16cn\L	.	.	.	.	.	.	.	.	.	.	.	.
16B\JJ	.	.	.	.	.	.	.	.	.	.	.	.
8A\L	.	6 5 n	.	.	.	.	8f#\	Pa-	.	.	.	.
8F#\J	.	.	.	.	.	.	8e\	-tres	.	.	.	.
!	!	!	!	!	!	!	!LO:LB:g=original	!	!	!	!	!
=109	=109	=109	=109	=109	=109	=109	=109	=109	=109	=109	=109	=109
8.B\L	.	#	2ryy	2ryy	2ryy	2ryy	8d#X\	nos-	2ryy	2ryy	2ryy	2ryy
.	.	.	.	.	.	.	8B\	-tros	.	.	.	.
16cn\Jk	.	.	.	.	.	.	.	.	.	.	.	.
!	!LO:DY:b:t=for	!	!	!	!	!	!	!	!	!	!	!
16B\LL	f	.	.	.	.	.	4r	.	.	.	.	.
16A\	.	.	.	.	.	.	.	.	.	.	.	.
16G\	.	.	.	.	.	.	.	.	.	.	.	.
16F#\JJ	.	.	.	.	.	.	.	.	.	.	.	.
=110	=110	=110	=110	=110	=110	=110	=110	=110	=110	=110	=110	=110
!LO:TX:b:t=Tutti.	!	!	!	!	!	!	!LO:TX:a:t=11.	!	!	!	!	!
8E\L	.	6	2ryy	2ryy	2ryy	2ryy	2r	.	2ryy	2ryy	2ryy	2ryy
16e\L	.	.	.	.	.	.	.	.	.	.	.	.
16d#X\JJ	.	.	.	.	.	.	.	.	.	.	.	.
8e\L	.	.	.	.	.	.	.	.	.	.	.	.
8e\J	.	.	.	.	.	.	.	.	.	.	.	.
=111	=111	=111	=111	=111	=111	=111	=111	=111	=111	=111	=111	=111
8cn\L	.	6	2ryy	2ryy	2ryy	2ryy	2r	.	2ryy	2ryy	2ryy	2ryy
16e\L	.	.	.	.	.	.	.	.	.	.	.	.
16d\JJ	.	.	.	.	.	.	.	.	.	.	.	.
16cn\LL	.	.	.	.	.	.	.	.	.	.	.	.
16B\	.	.	.	.	.	.	.	.	.	.	.	.
16A\	.	.	.	.	.	.	.	.	.	.	.	.
16G\JJ	.	.	.	.	.	.	.	.	.	.	.	.
=112	=112	=112	=112	=112	=112	=112	=112	=112	=112	=112	=112	=112
8F#\L	.	6	2ryy	2ryy	2ryy	2ryy	2r	.	2ryy	2ryy	2ryy	2ryy
16d\L	.	.	.	.	.	.	.	.	.	.	.	.
16c#X\JJ	.	.	.	.	.	.	.	.	.	.	.	.
8d\L	.	.	.	.	.	.	.	.	.	.	.	.
*custos:B	*	*	*	*	*	*	*	*	*	*	*	*
8d\J	.	.	.	.	.	.	.	.	.	.	.	.
!LO:LB:g=original	!	!	!	!	!	!	!	!	!	!	!	!
=113	=113	=113	=113	=113	=113	=113	=113	=113	=113	=113	=113	=113
8B\L	.	6	2ryy	2ryy	2ryy	2ryy	2r	.	2ryy	2ryy	2ryy	2ryy
16d\L	.	.	.	.	.	.	.	.	.	.	.	.
16cn\JJ	.	.	.	.	.	.	.	.	.	.	.	.
16B\LL	.	.	.	.	.	.	.	.	.	.	.	.
16A\	.	.	.	.	.	.	.	.	.	.	.	.
16G\	.	.	.	.	.	.	.	.	.	.	.	.
16F#\JJ	.	.	.	.	.	.	.	.	.	.	.	.
=114	=114	=114	=114	=114	=114	=114	=114	=114	=114	=114	=114	=114
8E\L	.	6	2ryy	2ryy	2ryy	2ryy	2r	.	2ryy	2ryy	2ryy	2ryy
16cn\L	.	.	.	.	.	.	.	.	.	.	.	.
16B\JJ	.	.	.	.	.	.	.	.	.	.	.	.
8c\L	.	.	.	.	.	.	.	.	.	.	.	.
8c\J	.	.	.	.	.	.	.	.	.	.	.	.
=115	=115	=115	=115	=115	=115	=115	=115	=115	=115	=115	=115	=115
8A\L	.	6 n	2ryy	2ryy	2ryy	2ryy	2r	.	2ryy	2ryy	2ryy	2ryy
16cn\L	.	.	.	.	.	.	.	.	.	.	.	.
16B\JJ	.	.	.	.	.	.	.	.	.	.	.	.
16A\LL	.	.	.	.	.	.	.	.	.	.	.	.
16G\	.	.	.	.	.	.	.	.	.	.	.	.
16F#\	.	.	.	.	.	.	.	.	.	.	.	.
16E\JJ	.	.	.	.	.	.	.	.	.	.	.	.
=116	=116	=116	=116	=116	=116	=116	=116	=116	=116	=116	=116	=116
8D#X\L	.	6	2ryy	2ryy	2ryy	2ryy	2r	.	2ryy	2ryy	2ryy	2ryy
16B\L	.	.	.	.	.	.	.	.	.	.	.	.
16A#X\JJ	.	.	.	.	.	.	.	.	.	.	.	.
8B\L	.	.	.	.	.	.	.	.	.	.	.	.
8B\J	.	.	.	.	.	.	.	.	.	.	.	.
=117	=117	=117	=117	=117	=117	=117	=117	=117	=117	=117	=117	=117
8G\L	.	6	2ryy	2ryy	2ryy	2ryy	2r	.	2ryy	2ryy	2ryy	2ryy
16B\L	.	.	.	.	.	.	.	.	.	.	.	.
16An\JJ	.	.	.	.	.	.	.	.	.	.	.	.
16G\LL	.	.	.	.	.	.	.	.	.	.	.	.
16F#\	.	.	.	.	.	.	.	.	.	.	.	.
16E\	.	.	.	.	.	.	.	.	.	.	.	.
16D\JJ	.	.	.	.	.	.	.	.	.	.	.	.
=118	=118	=118	=118	=118	=118	=118	=118	=118	=118	=118	=118	=118
16Cn\LL	.	6	2ryy	2ryy	2ryy	2ryy	2r	.	2ryy	2ryy	2ryy	2ryy
16A\	.	.	.	.	.	.	.	.	.	.	.	.
16G#X\	.	.	.	.	.	.	.	.	.	.	.	.
16A\JJ	.	.	.	.	.	.	.	.	.	.	.	.
16C#X\LL	.	6	.	.	.	.	.	.	.	.	.	.
16A\	.	.	.	.	.	.	.	.	.	.	.	.
16G#X\	.	.	.	.	.	.	.	.	.	.	.	.
16A\JJ	.	.	.	.	.	.	.	.	.	.	.	.
!LO:LB:g=original	!	!	!	!	!	!	!	!	!	!	!	!
=119	=119	=119	=119	=119	=119	=119	=119	=119	=119	=119	=119	=119
16D\LL	.	6	2ryy	2ryy	2ryy	2ryy	2r	.	2ryy	2ryy	2ryy	2ryy
16B\	.	.	.	.	.	.	.	.	.	.	.	.
16A\	.	.	.	.	.	.	.	.	.	.	.	.
16B\JJ	.	.	.	.	.	.	.	.	.	.	.	.
16D#X\LL	.	6	.	.	.	.	.	.	.	.	.	.
16B\	.	.	.	.	.	.	.	.	.	.	.	.
16A\	.	.	.	.	.	.	.	.	.	.	.	.
16B\JJ	.	.	.	.	.	.	.	.	.	.	.	.
=120	=120	=120	=120	=120	=120	=120	=120	=120	=120	=120	=120	=120
16E\LL	.	.	2ryy	2ryy	2ryy	2ryy	2r	.	2ryy	2ryy	2ryy	2ryy
16G\	.	.	.	.	.	.	.	.	.	.	.	.
16cn\	.	6	.	.	.	.	.	.	.	.	.	.
16A\JJ	.	.	.	.	.	.	.	.	.	.	.	.
8B\L	.	7 4	.	.	.	.	.	.	.	.	.	.
8B\J	.	#	.	.	.	.	.	.	.	.	.	.
=121	=121	=121	=121	=121	=121	=121	=121	=121	=121	=121	=121	=121
4E\	.	.	2ryy	2ryy	2ryy	2ryy	8r	.	2ryy	2ryy	2ryy	2ryy
.	.	.	.	.	.	.	8B\	Si-	.	.	.	.
8r	.	.	.	.	.	.	8e\	-cut	.	.	.	.
!LO:TX:b:t=solo	!LO:DY:b:t=pia&colon;	!	!	!	!	!	!	!	!	!	!	!
8BB/	p	#	.	.	.	.	8f#\	lo-	.	.	.	.
=122	=122	=122	=122	=122	=122	=122	=122	=122	=122	=122	=122	=122
8E\L	.	.	2ryy	2ryy	2ryy	2ryy	8.g\	-cu-	2ryy	2ryy	2ryy	2ryy
8B\J	.	.	.	.	.	.	.	.	.	.	.	.
.	.	.	.	.	.	.	16g\	-tus	.	.	.	.
8Dn\L	.	6	.	.	.	.	4f#\	est	.	.	.	.
8B\J	.	.	.	.	.	.	.	.	.	.	.	.
=123	=123	=123	=123	=123	=123	=123	=123	=123	=123	=123	=123	=123
8Cn/L	.	.	2ryy	2ryy	2ryy	2ryy	4e\	ad	2ryy	2ryy	2ryy	2ryy
8BB/	.	.	.	.	.	.	.	.	.	.	.	.
8AA/	.	6 5 n	.	.	.	.	8f#\	Pa-	.	.	.	.
8FF#/J	.	.	.	.	.	.	8e\	-tres	.	.	.	.
=124	=124	=124	=124	=124	=124	=124	=124	=124	=124	=124	=124	=124
4BB/	.	#	2ryy	2ryy	2ryy	2ryy	8d#X\	nos-	2ryy	2ryy	2ryy	2ryy
.	.	.	.	.	.	.	8B\	-tros	.	.	.	.
4r	.	.	.	.	.	.	8r	.	.	.	.	.
.	.	.	.	.	.	.	16f#\	A-	.	.	.	.
.	.	.	.	.	.	.	16f#\	-bra-	.	.	.	.
!	!	!	!	!	!	!	!LO:LB:g=original	!	!	!	!	!
=125	=125	=125	=125	=125	=125	=125	=125	=125	=125	=125	=125	=125
4r	.	.	2ryy	2ryy	2ryy	2ryy	8g\	-ham	2ryy	2ryy	2ryy	2ryy
.	.	.	.	.	.	.	8f#\	et	.	.	.	.
8r	.	.	.	.	.	.	16g\	Se-	.	.	.	.
.	.	.	.	.	.	.	16d#X\	-mi-	.	.	.	.
8B\	.	#	.	.	.	.	8d#\	-ni	.	.	.	.
=126	=126	=126	=126	=126	=126	=126	=126	=126	=126	=126	=126	=126
8cn\L	.	.	2ryy	2ryy	2ryy	2ryy	4.e\	e-	2ryy	2ryy	2ryy	2ryy
8B\	.	.	.	.	.	.	.	.	.	.	.	.
8c\	.	.	.	.	.	.	.	.	.	.	.	.
8A\J	.	6 n	.	.	.	.	8f#\	.	.	.	.	.
!LO:LB:g=original	!	!	!	!	!	!	!	!	!	!	!	!
=127	=127	=127	=127	=127	=127	=127	=127	=127	=127	=127	=127	=127
8B\L	.	#	2ryy	2ryy	2ryy	2ryy	8d#X\	-jus	2ryy	2ryy	2ryy	2ryy
8G\	.	6	.	.	.	.	(16d#\LL	in	.	.	.	.
.	.	.	.	.	.	.	16e\JJ)	.	.	.	.	.
8A\	.	6 5	.	.	.	.	8.f#t\	Sae-	.	.	.	.
8B\J	.	#	.	.	.	.	.	.	.	.	.	.
.	.	.	.	.	.	.	16e\	-cu-	.	.	.	.
=128	=128	=128	=128	=128	=128	=128	=128	=128	=128	=128	=128	=128
4E\	.	.	2ryy	2ryy	2ryy	2ryy	4d\	-la	2ryy	2ryy	2ryy	2ryy
4r	.	.	.	.	.	.	8r	.	.	.	.	.
.	.	.	.	.	.	.	16e\	A-	.	.	.	.
.	.	.	.	.	.	.	16e\	-bra-	.	.	.	.
=129	=129	=129	=129	=129	=129	=129	=129	=129	=129	=129	=129	=129
4r	.	.	2ryy	2ryy	2ryy	2ryy	8f#\	-ham	2ryy	2ryy	2ryy	2ryy
.	.	.	.	.	.	.	8e\	et	.	.	.	.
8r	.	.	.	.	.	.	16f#\	de-	.	.	.	.
.	.	.	.	.	.	.	16c#X\	-mi-	.	.	.	.
8A\	.	#	.	.	.	.	8c#\	-ni	.	.	.	.
!	!	!	!	!	!	!	!LO:LB:g=original	!	!	!	!	!
=130	=130	=130	=130	=130	=130	=130	=130	=130	=130	=130	=130	=130
8B\L	.	.	2ryy	2ryy	2ryy	2ryy	4.d\	e-	2ryy	2ryy	2ryy	2ryy
8A\	.	.	.	.	.	.	.	.	.	.	.	.
8B\	.	.	.	.	.	.	.	.	.	.	.	.
8G\J	.	6	.	.	.	.	8e\	.	.	.	.	.
=131	=131	=131	=131	=131	=131	=131	=131	=131	=131	=131	=131	=131
8A\L	.	.	2ryy	2ryy	2ryy	2ryy	8c#\	-jus	2ryy	2ryy	2ryy	2ryy
8F#\	.	6	.	.	.	.	(16d\LL	in	.	.	.	.
.	.	.	.	.	.	.	16e\JJ)	.	.	.	.	.
8G\	.	6 5	.	.	.	.	8.e\	Sae-	.	.	.	.
8A\J	.	.	.	.	.	.	.	.	.	.	.	.
.	.	.	.	.	.	.	16d\	-cu-	.	.	.	.
=132	=132	=132	=132	=132	=132	=132	=132	=132	=132	=132	=132	=132
8D\L	.	.	2ryy	2ryy	2ryy	2ryy	4d\	-la	2ryy	2ryy	2ryy	2ryy
8B\	.	6	.	.	.	.	.	.	.	.	.	.
8A\	.	6 4	.	.	.	.	4r	.	.	.	.	.
8G\J	.	6 5	.	.	.	.	.	.	.	.	.	.
=133	=133	=133	=133	=133	=133	=133	=133	=133	=133	=133	=133	=133
8F#\L	.	6	2ryy	2ryy	2ryy	2ryy	8r	.	2ryy	2ryy	2ryy	2ryy
16F#\L	.	.	.	.	.	.	8D/	Si-	.	.	.	.
16E\JJ	.	.	.	.	.	.	.	.	.	.	.	.
8D\L	.	.	.	.	.	.	8F#/	-cut	.	.	.	.
8E\J	.	#	.	.	.	.	8G#X/	lo-	.	.	.	.
=134	=134	=134	=134	=134	=134	=134	=134	=134	=134	=134	=134	=134
8r	.	.	2ryy	2ryy	2ryy	2ryy	8.A/	-cu-	2ryy	2ryy	2ryy	2ryy
8AA/L	.	.	.	.	.	.	.	.	.	.	.	.
.	.	.	.	.	.	.	16A/	-tus	.	.	.	.
8C#/	.	6	.	.	.	.	4A/	est	.	.	.	.
8D#X/J	.	.	.	.	.	.	.	.	.	.	.	.
=135	=135	=135	=135	=135	=135	=135	=135	=135	=135	=135	=135	=135
8E\L	.	-	2ryy	2ryy	2ryy	2ryy	8r	.	2ryy	2ryy	2ryy	2ryy
16G\L	.	.	.	.	.	.	8E/	Si-	.	.	.	.
16F#\JJ	.	.	.	.	.	.	.	.	.	.	.	.
8E\L	.	.	.	.	.	.	8G/	-cut	.	.	.	.
8F#\J	.	#	.	.	.	.	8A#X/	lo-	.	.	.	.
!LO:LB:g=original	!	!	!	!	!	!	!LO:LB:g=original	!	!	!	!	!
=136	=136	=136	=136	=136	=136	=136	=136	=136	=136	=136	=136	=136
8r	.	.	2ryy	2ryy	2ryy	2ryy	8.B\	-cu-	2ryy	2ryy	2ryy	2ryy
8BB/L	.	.	.	.	.	.	.	.	.	.	.	.
.	.	.	.	.	.	.	16B\	-tus	.	.	.	.
8D/	.	6	.	.	.	.	4B\	eſt	.	.	.	.
8BB/J	.	.	.	.	.	.	.	.	.	.	.	.
=137	=137	=137	=137	=137	=137	=137	=137	=137	=137	=137	=137	=137
8GG#X/L	.	6 5	2ryy	2ryy	2ryy	2ryy	4d\	ad	2ryy	2ryy	2ryy	2ryy
8GG#/	.	.	.	.	.	.	.	.	.	.	.	.
8GG#/	.	.	.	.	.	.	8E/	pa-	.	.	.	.
8GG#/J	.	.	.	.	.	.	8d\	-tres	.	.	.	.
=138	=138	=138	=138	=138	=138	=138	=138	=138	=138	=138	=138	=138
8AA/L	.	n	2ryy	2ryy	2ryy	2ryy	4cn\	nos-	2ryy	2ryy	2ryy	2ryy
16E/L	.	.	.	.	.	.	.	.	.	.	.	.
16D/JJ	.	.	.	.	.	.	.	.	.	.	.	.
16Cn/LL	.	.	.	.	.	.	4c\	-tros	.	.	.	.
16BB/	.	.	.	.	.	.	.	.	.	.	.	.
16AA/	.	.	.	.	.	.	.	.	.	.	.	.
16GG/JJ	.	.	.	.	.	.	.	.	.	.	.	.
=139	=139	=139	=139	=139	=139	=139	=139	=139	=139	=139	=139	=139
8FF#/L	.	6 5-r	2ryy	2ryy	2ryy	2ryy	4c#\	ad	2ryy	2ryy	2ryy	2ryy
8FF#/	.	.	.	.	.	.	.	.	.	.	.	.
8FF#/	.	.	.	.	.	.	8D/	pa-	.	.	.	.
8FF#/J	.	.	.	.	.	.	8cn\	-tres	.	.	.	.
=140	=140	=140	=140	=140	=140	=140	=140	=140	=140	=140	=140	=140
8GG/L	.	.	2ryy	2ryy	2ryy	2ryy	4B\	noſ-	2ryy	2ryy	2ryy	2ryy
!LO:TX:t=P:problem=mixed beam	!	!	!	!	!	!	!	!	!	!	!	!
16G\L	.	.	.	.	.	.	.	.	.	.	.	.
16F#\JJ	.	.	.	.	.	.	.	.	.	.	.	.
16E\LL	.	.	.	.	.	.	4B\	-tros	.	.	.	.
16F#\	.	.	.	.	.	.	.	.	.	.	.	.
16E\	.	.	.	.	.	.	.	.	.	.	.	.
16D\JJ	.	.	.	.	.	.	.	.	.	.	.	.
=141	=141	=141	=141	=141	=141	=141	=141	=141	=141	=141	=141	=141
8C#X/L	.	6\	2ryy	2ryy	2ryy	2ryy	2r	.	2ryy	2ryy	2ryy	2ryy
16E/L	.	.	.	.	.	.	.	.	.	.	.	.
16D/JJ	.	.	.	.	.	.	.	.	.	.	.	.
16C#/LL	.	.	.	.	.	.	.	.	.	.	.	.
16D/	.	.	.	.	.	.	.	.	.	.	.	.
16C#/	.	.	.	.	.	.	.	.	.	.	.	.
16BB/JJ	.	.	.	.	.	.	.	.	.	.	.	.
=142	=142	=142	=142	=142	=142	=142	=142	=142	=142	=142	=142	=142
4AA#X/	.	6 5	2ryy	2ryy	2ryy	2ryy	4r	.	2ryy	2ryy	2ryy	2ryy
4r	.	.	.	.	.	.	8r	.	.	.	.	.
.	.	.	.	.	.	.	16c#X\	A-	.	.	.	.
.	.	.	.	.	.	.	16c#\	-bra-	.	.	.	.
=143	=143	=143	=143	=143	=143	=143	=143	=143	=143	=143	=143	=143
4r	.	.	2ryy	2ryy	2ryy	2ryy	8d\	-ham	2ryy	2ryy	2ryy	2ryy
.	.	.	.	.	.	.	8c#\	et	.	.	.	.
8r	.	.	.	.	.	.	16d\	Se-	.	.	.	.
.	.	.	.	.	.	.	16A#X\	-mi-	.	.	.	.
8F#\	.	#	.	.	.	.	8A#\	-ni	.	.	.	.
!	!	!	!	!	!	!	!LO:LB:g=original	!	!	!	!	!
=144	=144	=144	=144	=144	=144	=144	=144	=144	=144	=144	=144	=144
.	.	.	.	.	.	.	8qqA/	.	.	.	.	.
8G\L	.	.	2ryy	2ryy	2ryy	2ryy	2B\	e-	2ryy	2ryy	2ryy	2ryy
8F#\	.	.	.	.	.	.	.	.	.	.	.	.
8G\	.	.	.	.	.	.	.	.	.	.	.	.
8D#X\J	.	6	.	.	.	.	.	.	.	.	.	.
!LO:LB:g=original	!	!	!	!	!	!	!	!	!	!	!	!
=145	=145	=145	=145	=145	=145	=145	=145	=145	=145	=145	=145	=145
8E\L	.	6n	2ryy	2ryy	2ryy	2ryy	4cn\	-jus	2ryy	2ryy	2ryy	2ryy
8E\	.	.	.	.	.	.	.	.	.	.	.	.
8E#X\	.	6 5	.	.	.	.	4B\	in	.	.	.	.
8E#\J	.	.	.	.	.	.	.	.	.	.	.	.
=146	=146	=146	=146	=146	=146	=146	=146	=146	=146	=146	=146	=146
8F#\L	.	.	2ryy	2ryy	2ryy	2ryy	8A#X\L	Sae-	2ryy	2ryy	2ryy	2ryy
8A#X\	.	.	.	.	.	.	16f#\L	.	.	.	.	.
.	.	.	.	.	.	.	16e\JJ	.	.	.	.	.
8B\	.	.	.	.	.	.	16d\LL	.	.	.	.	.
.	.	.	.	.	.	.	16c#\	.	.	.	.	.
8Dn\J	.	.	.	.	.	.	16B\	.	.	.	.	.
.	.	.	.	.	.	.	16A#\JJ	.	.	.	.	.
=147	=147	=147	=147	=147	=147	=147	=147	=147	=147	=147	=147	=147
8E\L	.	7	2ryy	2ryy	2ryy	2ryy	8G/	.	2ryy	2ryy	2ryy	2ryy
16G\L	.	.	.	.	.	.	4.e\	.	.	.	.	.
16F#\JJ	.	.	.	.	.	.	.	.	.	.	.	.
16E\LL	.	6	.	.	.	.	.	.	.	.	.	.
16F#\	.	.	.	.	.	.	.	.	.	.	.	.
16G\	.	.	.	.	.	.	.	.	.	.	.	.
16A\JJ	.	.	.	.	.	.	.	.	.	.	.	.
=148	=148	=148	=148	=148	=148	=148	=148	=148	=148	=148	=148	=148
!	!	!	!	!	!	!	!LO:TX:t=P:problem=mixed beam	!	!	!	!	!
8D\L	.	.	2ryy	2ryy	2ryy	2ryy	8F#/L	.	2ryy	2ryy	2ryy	2ryy
8F#\	.	.	.	.	.	.	16d\L	.	.	.	.	.
.	.	.	.	.	.	.	16c#\JJ	.	.	.	.	.
8G\	.	.	.	.	.	.	16B\LL	.	.	.	.	.
.	.	.	.	.	.	.	16A\	.	.	.	.	.
8BB\J	.	.	.	.	.	.	16G\	.	.	.	.	.
.	.	.	.	.	.	.	16F#\JJ	.	.	.	.	.
=149	=149	=149	=149	=149	=149	=149	=149	=149	=149	=149	=149	=149
8C#\L	.	7	2ryy	2ryy	2ryy	2ryy	8E/	.	2ryy	2ryy	2ryy	2ryy
16E\L	.	.	.	.	.	.	4.c#\	.	.	.	.	.
16D\JJ	.	.	.	.	.	.	.	.	.	.	.	.
16C#\LL	.	6\	.	.	.	.	.	.	.	.	.	.
16D\	.	.	.	.	.	.	.	.	.	.	.	.
16E\	.	.	.	.	.	.	.	.	.	.	.	.
16F#\JJ	.	.	.	.	.	.	.	.	.	.	.	.
=150	=150	=150	=150	=150	=150	=150	=150	=150	=150	=150	=150	=150
8BB/L	.	.	2ryy	2ryy	2ryy	2ryy	8D/	.	2ryy	2ryy	2ryy	2ryy
8D/	.	.	.	.	.	.	4F#/	.	.	.	.	.
8BB/	.	.	.	.	.	.	.	.	.	.	.	.
8D/J	.	.	.	.	.	.	[8B\	.	.	.	.	.
!	!	!	!	!	!	!	!LO:LB:g=original	!	!	!	!	!
=151	=151	=151	=151	=151	=151	=151	=151	=151	=151	=151	=151	=151
8C#/L	.	7	2ryy	2ryy	2ryy	2ryy	8B\L]	.	2ryy	2ryy	2ryy	2ryy
8BB/	.	.	.	.	.	.	16c#\L	.	.	.	.	.
.	.	.	.	.	.	.	16B\JJ	.	.	.	.	.
8C#/	.	6n	.	.	.	.	16A/LL	.	.	.	.	.
.	.	.	.	.	.	.	16G/	.	.	.	.	.
8AA/J	.	.	.	.	.	.	16F#/	.	.	.	.	.
.	.	.	.	.	.	.	16E/JJ	.	.	.	.	.
=152	=152	=152	=152	=152	=152	=152	=152	=152	=152	=152	=152	=152
8D\L	.	.	2ryy	2ryy	2ryy	2ryy	8F#/	.	2ryy	2ryy	2ryy	2ryy
8F#\	.	.	.	.	.	.	4A\	.	.	.	.	.
8D\	.	.	.	.	.	.	.	.	.	.	.	.
8F#\J	.	.	.	.	.	.	[8d\	.	.	.	.	.
=153	=153	=153	=153	=153	=153	=153	=153	=153	=153	=153	=153	=153
8E\L	.	7	2ryy	2ryy	2ryy	2ryy	16d\LL]	.	2ryy	2ryy	2ryy	2ryy
.	.	.	.	.	.	.	16f#\	.	.	.	.	.
8D\	.	.	.	.	.	.	16e\	.	.	.	.	.
.	.	.	.	.	.	.	16d\JJ	.	.	.	.	.
8E\	.	6	.	.	.	.	8c#\L	.	.	.	.	.
8C#\J	.	.	.	.	.	.	8B\J	.	.	.	.	.
=154	=154	=154	=154	=154	=154	=154	=154	=154	=154	=154	=154	=154
8F#\L	.	#	2ryy	2ryy	2ryy	2ryy	8A#X/L	.	2ryy	2ryy	2ryy	2ryy
8E\	.	.	.	.	.	.	8F#/	.	.	.	.	.
8D\	.	6	.	.	.	.	8B/	.	.	.	.	.
8E\J	.	.	.	.	.	.	8c#/J	.	.	.	.	.
!LO:LB:g=original	!	!	!	!	!	!	!	!	!	!	!	!
=155	=155	=155	=155	=155	=155	=155	=155	=155	=155	=155	=155	=155
16F#\LL	.	6 4	2ryy	2ryy	2ryy	2ryy	4.c#t\	cu-	2ryy	2ryy	2ryy	2ryy
16E\	.	.	.	.	.	.	.	.	.	.	.	.
16D\	.	.	.	.	.	.	.	.	.	.	.	.
16E\JJ	.	.	.	.	.	.	.	.	.	.	.	.
!LO:TX:t=P:problem=mixed beam	!	!	!	!	!	!	!	!	!	!	!	!
8F#\L	.	5 #	.	.	.	.	.	.	.	.	.	.
8FF#/J	.	.	.	.	.	.	8c#\	-la	.	.	.	.
=156	=156	=156	=156	=156	=156	=156	=156	=156	=156	=156	=156	=156
8BB/L	.	.	2ryy	2ryy	2ryy	2ryy	4B\	.	2ryy	2ryy	2ryy	2ryy
8D/	.	.	.	.	.	.	.	.	.	.	.	.
8C#/	.	.	.	.	.	.	4r	.	.	.	.	.
8BB/J	.	.	.	.	.	.	.	.	.	.	.	.
=157	=157	=157	=157	=157	=157	=157	=157	=157	=157	=157	=157	=157
!LO:TX:t=P:problem=mixed beam	!	!	!	!	!	!	!	!	!	!	!	!
8AA#X/L	.	6	2ryy	2ryy	2ryy	2ryy	8r	.	2ryy	2ryy	2ryy	2ryy
8G\	.	6	.	.	.	.	16e\	Se-	.	.	.	.
.	.	.	.	.	.	.	16e\	-mi-	.	.	.	.
8F#\	.	6 4	.	.	.	.	8d\	-ni	.	.	.	.
8E\J	.	6 4	.	.	.	.	8c#\	e-	.	.	.	.
!	!	!	!	!	!	!	!LO:PB:g=original	!	!	!	!	!
=158	=158	=158	=158	=158	=158	=158	=158	=158	=158	=158	=158	=158
4.D\	.	6	2ryy	2ryy	2ryy	2ryy	8d\	-jus	2ryy	2ryy	2ryy	2ryy
.	.	.	.	.	.	.	8A#X\	e-	.	.	.	.
.	.	.	.	.	.	.	8B\	-jus	.	.	.	.
8E\	.	.	.	.	.	.	8c#\	in	.	.	.	.
=159	=159	=159	=159	=159	=159	=159	=159	=159	=159	=159	=159	=159
16F#\LL	.	6 4	2ryy	2ryy	2ryy	2ryy	4d\	Sae-	2ryy	2ryy	2ryy	2ryy
16E\	.	.	.	.	.	.	.	.	.	.	.	.
16D\	.	.	.	.	.	.	.	.	.	.	.	.
16E\JJ	.	.	.	.	.	.	.	.	.	.	.	.
!LO:TX:t=P:problem=mixed beam	!	!	!	!	!	!	!	!	!	!	!	!
8F#\L	.	7 #	.	.	.	.	8.c#t\	-cu-	.	.	.	.
8FF#/J	.	.	.	.	.	.	.	.	.	.	.	.
.	.	.	.	.	.	.	16B\	.	.	.	.	.
=160	=160	=160	=160	=160	=160	=160	=160	=160	=160	=160	=160	=160
!LO:TX:t=P:problem=mixed beam	!	!	!	!	!	!	!	!	!	!	!	!
8BB/L	.	.	2ryy	2ryy	2ryy	2ryy	4B\	-la	2ryy	2ryy	2ryy	2ryy
!LO:TX:b:t=Tutti	!	!	!	!	!	!	!	!	!	!	!	!
16B\L	.	.	.	.	.	.	.	.	.	.	.	.
16A#X\JJ	.	.	.	.	.	.	.	.	.	.	.	.
!	!LO:DY:b:t=for	!	!	!	!	!	!	!	!	!	!	!
8B\L	f	.	.	.	.	.	4r	.	.	.	.	.
8B\J	.	.	.	.	.	.	.	.	.	.	.	.
=161	=161	=161	=161	=161	=161	=161	=161	=161	=161	=161	=161	=161
8G\L	.	6	2ryy	2ryy	2ryy	2ryy	2r	.	2ryy	2ryy	2ryy	2ryy
16B\L	.	.	.	.	.	.	.	.	.	.	.	.
16An\JJ	.	.	.	.	.	.	.	.	.	.	.	.
16G\LL	.	.	.	.	.	.	.	.	.	.	.	.
16F#\	.	.	.	.	.	.	.	.	.	.	.	.
16E\	.	.	.	.	.	.	.	.	.	.	.	.
16D\JJ	.	.	.	.	.	.	.	.	.	.	.	.
=162	=162	=162	=162	=162	=162	=162	=162	=162	=162	=162	=162	=162
8C#\L	.	6	2ryy	2ryy	2ryy	2ryy	2r	.	2ryy	2ryy	2ryy	2ryy
16A\L	.	.	.	.	.	.	.	.	.	.	.	.
16G#X\JJ	.	.	.	.	.	.	.	.	.	.	.	.
8A\L	.	.	.	.	.	.	.	.	.	.	.	.
8A\J	.	.	.	.	.	.	.	.	.	.	.	.
=163	=163	=163	=163	=163	=163	=163	=163	=163	=163	=163	=163	=163
8F#\L	.	6	2ryy	2ryy	2ryy	2ryy	2r	.	2ryy	2ryy	2ryy	2ryy
16A\L	.	.	.	.	.	.	.	.	.	.	.	.
16Gn\JJ	.	.	.	.	.	.	.	.	.	.	.	.
16F#\LL	.	.	.	.	.	.	.	.	.	.	.	.
16E\	.	.	.	.	.	.	.	.	.	.	.	.
16D\	.	.	.	.	.	.	.	.	.	.	.	.
16C#\JJ	.	.	.	.	.	.	.	.	.	.	.	.
!LO:LB:g=original	!	!	!	!	!	!	!	!	!	!	!	!
=164	=164	=164	=164	=164	=164	=164	=164	=164	=164	=164	=164	=164
!LO:TX:t=P:problem=mixed beam	!	!	!	!	!	!	!	!	!	!	!	!
8BB/L	.	6	2ryy	2ryy	2ryy	2ryy	2r	.	2ryy	2ryy	2ryy	2ryy
16G\L	.	.	.	.	.	.	.	.	.	.	.	.
16F#\JJ	.	.	.	.	.	.	.	.	.	.	.	.
8G\L	.	.	.	.	.	.	.	.	.	.	.	.
8G\J	.	.	.	.	.	.	.	.	.	.	.	.
=165	=165	=165	=165	=165	=165	=165	=165	=165	=165	=165	=165	=165
8E\L	.	6	2ryy	2ryy	2ryy	2ryy	2r	.	2ryy	2ryy	2ryy	2ryy
16G\L	.	.	.	.	.	.	.	.	.	.	.	.
16F#\JJ	.	.	.	.	.	.	.	.	.	.	.	.
16E\LL	.	.	.	.	.	.	.	.	.	.	.	.
16D\	.	.	.	.	.	.	.	.	.	.	.	.
16C#\	.	.	.	.	.	.	.	.	.	.	.	.
16BB\JJ	.	.	.	.	.	.	.	.	.	.	.	.
=166	=166	=166	=166	=166	=166	=166	=166	=166	=166	=166	=166	=166
8AA#X/L	.	6	2ryy	2ryy	2ryy	2ryy	2r	.	2ryy	2ryy	2ryy	2ryy
16F#\L	.	.	.	.	.	.	.	.	.	.	.	.
16E\JJ	.	.	.	.	.	.	.	.	.	.	.	.
8F#\L	.	.	.	.	.	.	.	.	.	.	.	.
8F#\J	.	.	.	.	.	.	.	.	.	.	.	.
=167	=167	=167	=167	=167	=167	=167	=167	=167	=167	=167	=167	=167
8D\L	.	6	2ryy	2ryy	2ryy	2ryy	2r	.	2ryy	2ryy	2ryy	2ryy
16F#\L	.	.	.	.	.	.	.	.	.	.	.	.
16E\JJ	.	.	.	.	.	.	.	.	.	.	.	.
16D/LL	.	.	.	.	.	.	.	.	.	.	.	.
16C#/	.	.	.	.	.	.	.	.	.	.	.	.
16BB/	.	.	.	.	.	.	.	.	.	.	.	.
16AA/JJ	.	.	.	.	.	.	.	.	.	.	.	.
=168	=168	=168	=168	=168	=168	=168	=168	=168	=168	=168	=168	=168
16GG/LL	.	6	2ryy	2ryy	2ryy	2ryy	2r	.	2ryy	2ryy	2ryy	2ryy
16E/	.	.	.	.	.	.	.	.	.	.	.	.
16D/	.	.	.	.	.	.	.	.	.	.	.	.
16E/JJ	.	.	.	.	.	.	.	.	.	.	.	.
16GG#X/LL	.	6	.	.	.	.	.	.	.	.	.	.
16E/	.	.	.	.	.	.	.	.	.	.	.	.
16D/	.	.	.	.	.	.	.	.	.	.	.	.
16E/JJ	.	.	.	.	.	.	.	.	.	.	.	.
=169	=169	=169	=169	=169	=169	=169	=169	=169	=169	=169	=169	=169
16AA/LL	.	6	2ryy	2ryy	2ryy	2ryy	2r	.	2ryy	2ryy	2ryy	2ryy
16F#/	.	.	.	.	.	.	.	.	.	.	.	.
16E/	.	.	.	.	.	.	.	.	.	.	.	.
16F#/JJ	.	.	.	.	.	.	.	.	.	.	.	.
16AA#X/LL	.	6	.	.	.	.	.	.	.	.	.	.
16F#/	.	.	.	.	.	.	.	.	.	.	.	.
16E/	.	.	.	.	.	.	.	.	.	.	.	.
16F#/JJ	.	.	.	.	.	.	.	.	.	.	.	.
=170	=170	=170	=170	=170	=170	=170	=170	=170	=170	=170	=170	=170
16BB/LL	.	.	2ryy	2ryy	2ryy	2ryy	2r	.	2ryy	2ryy	2ryy	2ryy
16D/	.	.	.	.	.	.	.	.	.	.	.	.
16G/	.	6	.	.	.	.	.	.	.	.	.	.
16E/JJ	.	.	.	.	.	.	.	.	.	.	.	.
8F#\L	.	7 4	.	.	.	.	.	.	.	.	.	.
8F#\J	.	#	.	.	.	.	.	.	.	.	.	.
=171	=171	=171	=171	=171	=171	=171	=171	=171	=171	=171	=171	=171
2BB/	.	.	2ryy	2ryy	2ryy	2ryy	2r	.	2ryy	2ryy	2ryy	2ryy
==	==	==	==	==	==	==	==;	==	==	==	==	==
*-	*-	*-	*-	*-	*-	*-	*-	*-	*-	*-	*-	*-
!!!system-decoration: [(s1,s2)][(s3,s4,s5,s6)][(s7,s8,s9)][(s10)]
!!!ENC: Marta Opryszak
!!!END: 2022-03-29
!!!ENC: Urszula Świątek
!!!END: 2022-03-30
!!!YEC: Copyright 2022 Narodowy Instytut Fryderyka Chopina (https://polishscores.org)
!!!YEM: Licence CC BY 4.0 (https://creativecommons.org/licenses/by/4.0)
